%
(Header)
(Generated by gcodetools from Inkscape.)
(Using default header. To add your own header create file "header" in the output dir.)
M3
(Header end.)
G21 (All units in mm)

(Start cutting path id: path5587)
(Change tool to Default tool)

G00 Z5.000000
G00 X119.170186 Y28.691748

G01 Z-0.125000 F500.0(Penetrate)
G01 X119.170186 Y34.278861 Z-0.125000 F1000.000000
G01 X124.031657 Y34.278861 Z-0.125000
G02 X125.492640 Y34.228955 Z-0.125000 I0.000000 J-21.409922
G02 X126.260455 Y34.126416 Z-0.125000 I-0.410240 J-5.997840
G02 X126.986711 Y33.900825 Z-0.125000 I-0.670029 J-3.438894
G02 X127.479561 Y33.596674 Z-0.125000 I-0.809777 J-1.863558
G02 X127.831302 Y33.166688 Z-0.125000 I-0.946777 J-1.133351
G02 X127.935790 Y32.754407 Z-0.125000 I-0.761134 J-0.412281
G02 X127.769950 Y32.258811 Z-0.125000 I-0.823441 J0.000000
G02 X127.180393 Y31.752079 Z-0.125000 I-1.455135 J1.096652
G02 X126.391937 Y31.458186 Z-0.125000 I-1.450577 J2.687028
G02 X124.846888 Y31.233761 Z-0.125000 I-2.279485 J10.262399
G02 X125.416174 Y31.073774 Z-0.125000 I-2.077792 J-8.486321
G02 X125.721952 Y30.955563 Z-0.125000 I-0.813572 J-2.559076
G02 X126.336423 Y30.623714 Z-0.125000 I-2.561552 J-5.477929
G02 X126.926101 Y30.212395 Z-0.125000 I-3.366222 J-5.454259
G01 X128.833294 Y28.691748 Z-0.125000
G01 X127.008372 Y28.691748 Z-0.125000
G01 X125.557411 Y29.854137 Z-0.125000
G03 X124.913298 Y30.345525 Z-0.125000 I-14.182279 J-17.922338
G03 X124.510322 Y30.623979 Z-0.125000 I-4.948850 J-6.731102
G03 X124.087536 Y30.866772 Z-0.125000 I-2.453622 J-3.783100
G03 X123.769886 Y30.997487 Z-0.125000 I-1.008068 J-1.998377
G03 X123.444611 Y31.087932 Z-0.125000 I-1.082464 J-3.262852
G03 X123.111716 Y31.146105 Z-0.125000 I-0.758647 J-3.359754
G03 X122.864405 Y31.163541 Z-0.125000 I-0.356955 J-3.300437
G03 X122.303965 Y31.172799 Z-0.125000 I-0.560440 J-16.958997
G01 X120.621146 Y31.172799 Z-0.125000
G01 X120.621146 Y28.691748 Z-0.125000
G01 X119.170186 Y28.691748 Z-0.125000
G01 X119.170186 Y28.691748 Z-0.125000
G00 Z5.000000

(End cutting path id: path5587)


(Start cutting path id: path5587)
(Change tool to Default tool)

G00 Z5.000000
G00 X120.621146 Y31.813061

G01 Z-0.125000 F500.0(Penetrate)
G01 X123.739969 Y31.813061 Z-0.125000 F1000.000000
G03 X124.731720 Y31.845827 Z-0.125000 I0.000000 J15.025436
G03 X125.295640 Y31.915967 Z-0.125000 I-0.325257 J4.917025
G03 X125.834316 Y32.071658 Z-0.125000 I-0.561736 J2.953294
G03 X126.148264 Y32.251339 Z-0.125000 I-0.457958 J1.164278
G03 X126.375528 Y32.514860 Z-0.125000 I-0.585767 J0.734932
G03 X126.439952 Y32.754407 Z-0.125000 I-0.413140 J0.239547
G03 X126.320385 Y33.073397 Z-0.125000 I-0.485298 J-0.000000
G03 X125.871536 Y33.406113 Z-0.125000 I-0.983783 J-0.858052
G03 X125.292017 Y33.575780 Z-0.125000 I-0.881705 J-1.937024
G03 X124.091491 Y33.661444 Z-0.125000 I-1.200526 J-8.369481
G01 X120.621146 Y33.661444 Z-0.125000
G01 X120.621146 Y31.813061 Z-0.125000
G01 X120.621146 Y31.813061 Z-0.125000
G00 Z5.000000

(End cutting path id: path5587)


(Start cutting path id: path5585)
(Change tool to Default tool)

G00 Z5.000000
G00 X108.946142 Y28.691748

G01 Z-0.125000 F500.0(Penetrate)
G01 X108.946142 Y34.278861 Z-0.125000 F1000.000000
G01 X116.874078 Y34.278861 Z-0.125000
G01 X116.874078 Y33.619540 Z-0.125000
G01 X110.397102 Y33.619540 Z-0.125000
G01 X110.397102 Y31.908332 Z-0.125000
G01 X116.462723 Y31.908332 Z-0.125000
G01 X116.462723 Y31.252819 Z-0.125000
G01 X110.397102 Y31.252819 Z-0.125000
G01 X110.397102 Y29.351069 Z-0.125000
G01 X117.128369 Y29.351069 Z-0.125000
G01 X117.128369 Y28.691748 Z-0.125000
G01 X108.946142 Y28.691748 Z-0.125000
G01 X108.946142 Y28.691748 Z-0.125000
G00 Z5.000000

(End cutting path id: path5585)


(Start cutting path id: path5583)
(Change tool to Default tool)

G00 Z5.000000
G00 X102.282185 Y28.691748

G01 Z-0.125000 F500.0(Penetrate)
G01 X102.282185 Y33.619540 Z-0.125000 F1000.000000
G01 X98.669737 Y33.619540 Z-0.125000
G01 X98.669737 Y34.278861 Z-0.125000
G01 X107.360554 Y34.278861 Z-0.125000
G01 X107.360554 Y33.619540 Z-0.125000
G01 X103.733145 Y33.619540 Z-0.125000
G01 X103.733145 Y28.691748 Z-0.125000
G01 X102.282185 Y28.691748 Z-0.125000
G01 X102.282185 Y28.691748 Z-0.125000
G00 Z5.000000

(End cutting path id: path5583)


(Start cutting path id: path5581)
(Change tool to Default tool)

G00 Z5.000000
G00 X88.767298 Y30.486784

G01 Z-0.125000 F500.0(Penetrate)
G01 X90.135992 Y30.547766 Z-0.125000 F1000.000000
G03 X90.296950 Y30.169515 Z-0.125000 I1.153735 J0.267578
G03 X90.584740 Y29.857944 Z-0.125000 I1.056921 J0.687556
G03 X90.968443 Y29.645056 Z-0.125000 I0.990319 J1.332686
G03 X91.691659 Y29.423494 Z-0.125000 I1.802470 J4.592444
G03 X92.444472 Y29.304785 Z-0.125000 I1.375875 J6.278939
G03 X93.374478 Y29.259606 Z-0.125000 I0.930006 J9.549375
G03 X94.201201 Y29.295006 Z-0.125000 I-0.000000 J9.671172
G03 X94.840399 Y29.385378 Z-0.125000 I-0.503165 J5.864583
G03 X95.456305 Y29.557286 Z-0.125000 I-0.808020 J4.084236
G03 X95.782777 Y29.728365 Z-0.125000 I-0.473088 J1.299840
G03 X96.030018 Y29.984145 Z-0.125000 I-0.544471 J0.773679
G03 X96.096901 Y30.208567 Z-0.125000 I-0.343074 J0.224422
G03 X96.029443 Y30.434916 Z-0.125000 I-0.413476 J0.000000
G03 X95.797733 Y30.665903 Z-0.125000 I-0.663973 J-0.434341
G03 X95.480844 Y30.820758 Z-0.125000 I-0.748312 J-1.129653
G03 X94.810482 Y30.997487 Z-0.125000 I-1.666815 J-4.962737
G03 X94.367140 Y31.072182 Z-0.125000 I-1.501310 J-7.557831
G03 X92.858415 Y31.268069 Z-0.125000 I-12.114924 J-87.400980
G02 X91.353656 Y31.485603 Z-0.125000 I4.528594 J36.639228
G02 X90.741805 Y31.618692 Z-0.125000 I1.023317 J6.177480
G02 X89.984962 Y31.884939 Z-0.125000 I1.337594 J5.011121
G02 X89.567572 Y32.137010 Z-0.125000 I0.773596 J1.752555
G02 X89.273898 Y32.491071 Z-0.125000 I0.763992 J0.932513
G02 X89.186134 Y32.834447 Z-0.125000 I0.627843 J0.343377
G02 X89.288959 Y33.207133 Z-0.125000 I0.726804 J0.000000
G02 X89.657323 Y33.623348 Z-0.125000 I1.289665 J-0.770282
G02 X90.163809 Y33.917345 Z-0.125000 I1.301449 J-1.658806
G02 X91.033493 Y34.183570 Z-0.125000 I1.917452 J-4.710166
G02 X91.943894 Y34.322083 Z-0.125000 I1.678562 J-7.971521
G02 X93.045393 Y34.374132 Z-0.125000 I1.101498 J-11.629321
G02 X94.258373 Y34.317188 Z-0.125000 I-0.000000 J-12.947512
G02 X95.191920 Y34.172147 Z-0.125000 I-0.734211 J-7.802596
G02 X96.090517 Y33.895713 Z-0.125000 I-1.089938 J-5.141770
G02 X96.627924 Y33.585231 Z-0.125000 I-0.866617 J-2.120348
G02 X97.025590 Y33.140858 Z-0.125000 I-1.015116 J-1.308541
G02 X97.166423 Y32.704868 Z-0.125000 I-0.833995 J-0.510136
G01 X95.775296 Y32.651501 Z-0.125000
G03 X95.546907 Y33.084828 Z-0.125000 I-0.878081 J-0.185950
G03 X95.012419 Y33.451844 Z-0.125000 I-1.138296 J-1.085009
G03 X94.351461 Y33.634462 Z-0.125000 I-1.036398 J-2.463656
G03 X93.105226 Y33.722426 Z-0.125000 I-1.246234 J-8.784062
G03 X91.805286 Y33.639007 Z-0.125000 I0.000000 J-10.170282
G03 X91.183077 Y33.474710 Z-0.125000 I0.317275 J-2.461892
G03 X90.697902 Y33.154728 Z-0.125000 I0.563389 J-1.382059
G03 X90.584740 Y32.883987 Z-0.125000 I0.267297 J-0.270742
G03 X90.674927 Y32.640903 Z-0.125000 I0.372692 J0.000000
G03 X91.011056 Y32.388534 Z-0.125000 I0.742466 J0.638860
G03 X91.445748 Y32.250316 Z-0.125000 I0.760146 J1.637980
G03 X93.194977 Y31.988372 Z-0.125000 I4.893545 J26.706994
G02 X94.962799 Y31.758823 Z-0.125000 I-6.442159 J-56.534861
G02 X95.625712 Y31.633942 Z-0.125000 I-1.175606 J-8.062484
G02 X96.550602 Y31.340214 Z-0.125000 I-1.446146 J-6.156633
G02 X97.039280 Y31.062277 Z-0.125000 I-0.795772 J-1.967720
G02 X97.389482 Y30.666335 Z-0.125000 I-0.791831 J-1.053203
G02 X97.495508 Y30.269549 Z-0.125000 I-0.689442 J-0.396786
G02 X97.387297 Y29.876034 Z-0.125000 I-0.769622 J0.000000
G02 X96.994402 Y29.427302 Z-0.125000 I-1.412563 J0.840422
G02 X96.457108 Y29.110161 Z-0.125000 I-1.469503 J1.875897
G02 X95.550922 Y28.813713 Z-0.125000 I-2.177003 J5.121440
G02 X94.609150 Y28.656436 Z-0.125000 I-1.720687 J7.405186
G02 X93.441792 Y28.596477 Z-0.125000 I-1.167358 J11.333847
G02 X91.960506 Y28.661886 Z-0.125000 I0.000000 J16.805714
G02 X90.943742 Y28.817520 Z-0.125000 I0.712875 J8.056349
G02 X89.980957 Y29.123212 Z-0.125000 I1.205501 J5.465761
G02 X89.365634 Y29.480649 Z-0.125000 I1.076030 J2.560728
G02 X88.918352 Y29.989546 Z-0.125000 I1.139472 J1.452521
G02 X88.767298 Y30.486784 Z-0.125000 I0.933526 J0.555156
G01 X88.767298 Y30.486784 Z-0.125000
G00 Z5.000000

(End cutting path id: path5581)


(Start cutting path id: path5579)
(Change tool to Default tool)

G00 Z5.000000
G00 X77.825246 Y28.691748

G01 Z-0.125000 F500.0(Penetrate)
G01 X82.036027 Y34.278861 Z-0.125000 F1000.000000
G01 X83.599178 Y34.278861 Z-0.125000
G01 X88.086691 Y28.691748 Z-0.125000
G01 X86.433789 Y28.691748 Z-0.125000
G01 X85.154850 Y30.383878 Z-0.125000
G01 X80.570106 Y30.383878 Z-0.125000
G01 X79.365961 Y28.691748 Z-0.125000
G01 X77.825246 Y28.691748 Z-0.125000
G01 X77.825246 Y28.691748 Z-0.125000
G00 Z5.000000

(End cutting path id: path5579)


(Start cutting path id: path5579)
(Change tool to Default tool)

G00 Z5.000000
G00 X80.988942 Y30.986044

G01 Z-0.125000 F500.0(Penetrate)
G01 X84.706097 Y30.986044 Z-0.125000 F1000.000000
G01 X83.561781 Y32.533364 Z-0.125000
G02 X83.055745 Y33.249758 Z-0.125000 I14.835200 J11.016001
G02 X82.783948 Y33.691945 Z-0.125000 I5.372435 J3.606878
G02 X82.540525 Y33.173050 Z-0.125000 I-3.986086 J1.553394
G02 X82.193091 Y32.624827 Z-0.125000 I-4.799369 J2.657380
G01 X80.988942 Y30.986044 Z-0.125000
G01 X80.988942 Y30.986044 Z-0.125000
G00 Z5.000000

(End cutting path id: path5579)


(Start cutting path id: path5577)
(Change tool to Default tool)

G00 Z5.000000
G00 X66.210072 Y28.691748

G01 Z-0.125000 F500.0(Penetrate)
G01 X66.210072 Y34.278861 Z-0.125000 F1000.000000
G01 X68.393992 Y34.278861 Z-0.125000
G01 X70.989272 Y30.322916 Z-0.125000
G02 X71.344988 Y29.768240 Z-0.125000 I-47.061426 J-30.572073
G02 X71.512815 Y29.495899 Z-0.125000 I-11.175587 J-7.074699
G02 X71.703889 Y29.798160 Z-0.125000 I11.197000 J-6.866668
G02 X72.096191 Y30.391513 Z-0.125000 I43.548844 J-28.366410
G01 X74.721384 Y34.278861 Z-0.125000
G01 X76.673450 Y34.278861 Z-0.125000
G01 X76.673450 Y28.691748 Z-0.125000
G01 X75.274843 Y28.691748 Z-0.125000
G01 X75.274843 Y33.367996 Z-0.125000
G01 X72.088711 Y28.691748 Z-0.125000
G01 X70.779854 Y28.691748 Z-0.125000
G01 X67.608678 Y33.448037 Z-0.125000
G01 X67.608678 Y28.691748 Z-0.125000
G01 X66.210072 Y28.691748 Z-0.125000
G01 X66.210072 Y28.691748 Z-0.125000
G00 Z5.000000

(End cutting path id: path5577)


(Start cutting path id: path5575)
(Change tool to Default tool)

G00 Z5.000000
G00 X59.620909 Y28.691748

G01 Z-0.125000 F500.0(Penetrate)
G01 X59.620909 Y33.619540 Z-0.125000 F1000.000000
G01 X56.008464 Y33.619540 Z-0.125000
G01 X56.008464 Y34.278861 Z-0.125000
G01 X64.699278 Y34.278861 Z-0.125000
G01 X64.699278 Y33.619540 Z-0.125000
G01 X61.071873 Y33.619540 Z-0.125000
G01 X61.071873 Y28.691748 Z-0.125000
G01 X59.620909 Y28.691748 Z-0.125000
G01 X59.620909 Y28.691748 Z-0.125000
G00 Z5.000000

(End cutting path id: path5575)


(Start cutting path id: path5573)
(Change tool to Default tool)

G00 Z5.000000
G00 X47.542025 Y28.691748

G01 Z-0.125000 F500.0(Penetrate)
G01 X47.542025 Y34.278861 Z-0.125000 F1000.000000
G01 X54.938939 Y34.278861 Z-0.125000
G01 X54.938939 Y33.619540 Z-0.125000
G01 X48.992986 Y33.619540 Z-0.125000
G01 X48.992986 Y31.889274 Z-0.125000
G01 X54.138664 Y31.889274 Z-0.125000
G01 X54.138664 Y31.229953 Z-0.125000
G01 X48.992986 Y31.229953 Z-0.125000
G01 X48.992986 Y28.691748 Z-0.125000
G01 X47.542025 Y28.691748 Z-0.125000
G01 X47.542025 Y28.691748 Z-0.125000
G00 Z5.000000

(End cutting path id: path5573)


(Start cutting path id: path5571)
(Change tool to Default tool)

G00 Z5.000000
G00 X35.119097 Y31.412900

G01 Z-0.125000 F500.0(Penetrate)
G02 X35.478244 Y32.588881 Z-0.125000 I2.104876 J0.000000 F1000.000000
G02 X36.585017 Y33.589039 Z-0.125000 I2.569387 J-1.730825
G02 X38.109660 Y34.144905 Z-0.125000 I2.677748 J-4.975742
G02 X40.369486 Y34.377939 Z-0.125000 I2.259826 J-10.840710
G02 X41.872776 Y34.276889 Z-0.125000 I0.000000 J-11.232486
G02 X43.106866 Y34.008259 Z-0.125000 I-1.056327 J-7.821802
G02 X44.254133 Y33.521519 Z-0.125000 I-1.696031 J-5.593068
G02 X44.961706 Y32.975450 Z-0.125000 I-1.462442 J-2.626425
G02 X45.445812 Y32.251376 Z-0.125000 I-1.706545 J-1.664844
G02 X45.604915 Y31.477689 Z-0.125000 I-1.801585 J-0.773687
G02 X45.439724 Y30.696401 Z-0.125000 I-1.930182 J0.000000
G02 X44.931789 Y29.957043 Z-0.125000 I-2.227068 J0.985830
G02 X44.188145 Y29.406963 Z-0.125000 I-2.232455 J2.240319
G02 X43.024596 Y28.939464 Z-0.125000 I-2.736123 J5.128169
G02 X41.778141 Y28.687313 Z-0.125000 I-2.383777 J8.576822
G02 X40.362006 Y28.596477 Z-0.125000 I-1.416135 J10.993382
G02 X38.829845 Y28.701484 Z-0.125000 I0.000000 J11.230460
G02 X37.594707 Y28.977581 Z-0.125000 I1.040560 J7.555797
G02 X36.447044 Y29.473613 Z-0.125000 I1.780363 J5.694882
G02 X35.747348 Y30.018025 Z-0.125000 I1.472200 J2.613961
G02 X35.264594 Y30.735567 Z-0.125000 I1.860731 J1.773048
G02 X35.119097 Y31.412900 Z-0.125000 I1.503847 J0.677333
G01 X35.119097 Y31.412900 Z-0.125000
G00 Z5.000000

(End cutting path id: path5571)


(Start cutting path id: path5571)
(Change tool to Default tool)

G00 Z5.000000
G00 X36.614934 Y31.401416

G01 Z-0.125000 F500.0(Penetrate)
G03 X36.874258 Y30.544933 Z-0.125000 I1.544038 J-0.000000 F1000.000000
G03 X37.676978 Y29.808365 Z-0.125000 I1.904083 J1.269401
G03 X38.788929 Y29.396504 Z-0.125000 I1.999898 J3.692404
G03 X40.354526 Y29.229084 Z-0.125000 I1.565597 J7.236494
G03 X41.947922 Y29.400729 Z-0.125000 I0.000000 J7.481682
G03 X43.047032 Y29.815980 Z-0.125000 I-0.856437 J3.929083
G03 X43.840644 Y30.561248 Z-0.125000 I-1.067830 J1.932277
G03 X44.109078 Y31.481457 Z-0.125000 I-1.443051 J0.920208
G03 X43.991085 Y32.118362 Z-0.125000 I-1.777950 J-0.000000
G03 X43.652849 Y32.670519 Z-0.125000 I-1.658808 J-0.636464
G03 X43.145845 Y33.092087 Z-0.125000 I-1.591712 J-1.398630
G03 X42.329032 Y33.459419 Z-0.125000 I-2.001189 J-3.358102
G03 X41.449234 Y33.664386 Z-0.125000 I-1.636941 J-5.035691
G03 X40.376962 Y33.741444 Z-0.125000 I-1.072272 J-7.421861
G03 X38.871184 Y33.589546 Z-0.125000 I0.000000 J-7.539411
G03 X37.721853 Y33.200260 Z-0.125000 I0.968053 J-4.749374
G03 X36.918223 Y32.472999 Z-0.125000 I0.845763 J-1.742216
G03 X36.614934 Y31.401416 Z-0.125000 I1.741418 J-1.071582
G01 X36.614934 Y31.401416 Z-0.125000
G00 Z5.000000

(End cutting path id: path5571)


(Start cutting path id: path5569)
(Change tool to Default tool)

G00 Z5.000000
G00 X24.835216 Y30.486784

G01 Z-0.125000 F500.0(Penetrate)
G01 X26.203907 Y30.547766 Z-0.125000 F1000.000000
G03 X26.364867 Y30.169515 Z-0.125000 I1.153747 J0.267588
G03 X26.652658 Y29.857944 Z-0.125000 I1.056928 J0.687566
G03 X27.036360 Y29.645056 Z-0.125000 I0.990312 J1.332672
G03 X27.759578 Y29.423494 Z-0.125000 I1.802470 J4.592446
G03 X28.512388 Y29.304785 Z-0.125000 I1.375868 J6.278890
G03 X29.442395 Y29.259606 Z-0.125000 I0.930006 J9.549368
G03 X30.269116 Y29.295006 Z-0.125000 I-0.000000 J9.671151
G03 X30.908315 Y29.385378 Z-0.125000 I-0.503168 J5.864614
G03 X31.524223 Y29.557286 Z-0.125000 I-0.808017 J4.084226
G03 X31.850692 Y29.728365 Z-0.125000 I-0.473082 J1.299820
G03 X32.097935 Y29.984145 Z-0.125000 I-0.544471 J0.773682
G03 X32.164818 Y30.208567 Z-0.125000 I-0.343072 J0.224422
G03 X32.097360 Y30.434916 Z-0.125000 I-0.413477 J-0.000000
G03 X31.865651 Y30.665903 Z-0.125000 I-0.663973 J-0.434339
G03 X31.548762 Y30.820758 Z-0.125000 I-0.748307 J-1.129643
G03 X30.878398 Y30.997487 Z-0.125000 I-1.666816 J-4.962744
G03 X30.435057 Y31.072182 Z-0.125000 I-1.501303 J-7.557791
G03 X28.926331 Y31.268069 Z-0.125000 I-12.114900 J-87.400857
G02 X27.421573 Y31.485603 Z-0.125000 I4.528605 J36.639261
G02 X26.809721 Y31.618692 Z-0.125000 I1.023325 J6.177528
G02 X26.052879 Y31.884939 Z-0.125000 I1.337592 J5.011115
G02 X25.635489 Y32.137010 Z-0.125000 I0.773592 J1.752546
G02 X25.341815 Y32.491071 Z-0.125000 I0.763992 J0.932513
G02 X25.254051 Y32.834447 Z-0.125000 I0.627844 J0.343377
G02 X25.356876 Y33.207133 Z-0.125000 I0.726805 J0.000000
G02 X25.725239 Y33.623348 Z-0.125000 I1.289665 J-0.770282
G02 X26.231725 Y33.917345 Z-0.125000 I1.301447 J-1.658802
G02 X27.101410 Y34.183570 Z-0.125000 I1.917451 J-4.710165
G02 X28.011812 Y34.322083 Z-0.125000 I1.678563 J-7.971529
G02 X29.113310 Y34.374132 Z-0.125000 I1.101499 J-11.629329
G02 X30.326289 Y34.317188 Z-0.125000 I-0.000000 J-12.947480
G02 X31.259837 Y34.172147 Z-0.125000 I-0.734214 J-7.802626
G02 X32.158433 Y33.895713 Z-0.125000 I-1.089937 J-5.141769
G02 X32.695841 Y33.585231 Z-0.125000 I-0.866616 J-2.120344
G02 X33.093507 Y33.140858 Z-0.125000 I-1.015124 J-1.308550
G02 X33.234342 Y32.704868 Z-0.125000 I-0.834003 J-0.510143
G01 X31.843213 Y32.651501 Z-0.125000
G03 X31.614823 Y33.084828 Z-0.125000 I-0.878084 J-0.185952
G03 X31.080337 Y33.451844 Z-0.125000 I-1.138296 J-1.085009
G03 X30.419377 Y33.634462 Z-0.125000 I-1.036399 J-2.463660
G03 X29.173144 Y33.722426 Z-0.125000 I-1.246233 J-8.784054
G03 X27.873204 Y33.639007 Z-0.125000 I-0.000000 J-10.170289
G03 X27.250993 Y33.474710 Z-0.125000 I0.317276 J-2.461902
G03 X26.765820 Y33.154728 Z-0.125000 I0.563388 J-1.382054
G03 X26.652658 Y32.883987 Z-0.125000 I0.267298 J-0.270742
G03 X26.742844 Y32.640902 Z-0.125000 I0.372694 J0.000000
G03 X27.078972 Y32.388534 Z-0.125000 I0.742463 J0.638854
G03 X27.513666 Y32.250316 Z-0.125000 I0.760153 J1.638007
G03 X29.262894 Y31.988372 Z-0.125000 I4.893554 J26.707062
G02 X31.030715 Y31.758823 Z-0.125000 I-6.442185 J-56.535025
G02 X31.693630 Y31.633942 Z-0.125000 I-1.175618 J-8.062571
G02 X32.618521 Y31.340214 Z-0.125000 I-1.446140 J-6.156617
G02 X33.107196 Y31.062277 Z-0.125000 I-0.795763 J-1.967696
G02 X33.457400 Y30.666334 Z-0.125000 I-0.791831 J-1.053206
G02 X33.563426 Y30.269549 Z-0.125000 I-0.689439 J-0.396785
G02 X33.455215 Y29.876034 Z-0.125000 I-0.769623 J-0.000000
G02 X33.062320 Y29.427302 Z-0.125000 I-1.412562 J0.840422
G02 X32.525027 Y29.110161 Z-0.125000 I-1.469495 J1.875884
G02 X31.618838 Y28.813713 Z-0.125000 I-2.177005 J5.121453
G02 X30.677065 Y28.656436 Z-0.125000 I-1.720689 J7.405195
G02 X29.509707 Y28.596477 Z-0.125000 I-1.167358 J11.333844
G02 X28.028425 Y28.661886 Z-0.125000 I0.000000 J16.805670
G02 X27.011659 Y28.817520 Z-0.125000 I0.712880 J8.056393
G02 X26.048875 Y29.123212 Z-0.125000 I1.205503 J5.465766
G02 X25.433551 Y29.480649 Z-0.125000 I1.076037 J2.560745
G02 X24.986271 Y29.989546 Z-0.125000 I1.139473 J1.452517
G02 X24.835216 Y30.486784 Z-0.125000 I0.933530 J0.555157
G01 X24.835216 Y30.486784 Z-0.125000
G00 Z5.000000

(End cutting path id: path5569)


(Start cutting path id: path5608)
(Change tool to Default tool)

G00 Z5.000000
G00 X118.388015 Y57.240808

G01 Z-0.125000 F500.0(Penetrate)
G01 X118.388015 Y66.532969 Z-0.125000 F1000.000000
G01 X125.542371 Y66.532969 Z-0.125000
G01 X125.542371 Y65.436416 Z-0.125000
G01 X119.697397 Y65.436416 Z-0.125000
G01 X119.697397 Y62.590455 Z-0.125000
G01 X125.171155 Y62.590455 Z-0.125000
G01 X125.171155 Y61.500244 Z-0.125000
G01 X119.697397 Y61.500244 Z-0.125000
G01 X119.697397 Y58.337358 Z-0.125000
G01 X125.771849 Y58.337358 Z-0.125000
G01 X125.771849 Y57.240808 Z-0.125000
G01 X118.388015 Y57.240808 Z-0.125000
G01 X118.388015 Y57.240808 Z-0.125000
G00 Z5.000000

(End cutting path id: path5608)


(Start cutting path id: path5606)
(Change tool to Default tool)

G00 Z5.000000
G00 X115.431778 Y60.498769

G01 Z-0.125000 F500.0(Penetrate)
G01 X116.741159 Y60.188185 Z-0.125000 F1000.000000
G02 X116.128986 Y58.809906 Z-0.125000 I-4.786465 J1.300857
G02 X115.256293 Y57.874653 Z-0.125000 I-3.003135 J1.927467
G02 X114.117590 Y57.300880 Z-0.125000 I-2.218484 J2.985962
G02 X112.644277 Y57.082345 Z-0.125000 I-1.473313 J4.857094
G02 X111.094492 Y57.260928 Z-0.125000 I-0.000000 J6.814002
G02 X110.039013 Y57.690837 Z-0.125000 I0.827108 J3.541271
G02 X109.176915 Y58.426281 Z-0.125000 I1.929369 J3.134638
G02 X108.513648 Y59.465601 Z-0.125000 I3.304549 J2.840175
G02 X108.128354 Y60.654271 Z-0.125000 I5.300700 J2.374942
G02 X107.993947 Y61.956612 Z-0.125000 I6.242332 J1.302341
G02 X108.155525 Y63.366948 Z-0.125000 I6.235859 J-0.000000
G02 X108.581143 Y64.485650 Z-0.125000 I4.318418 J-1.002657
G02 X109.303569 Y65.437520 Z-0.125000 I3.555395 J-1.948303
G02 X110.261743 Y66.127307 Z-0.125000 I2.765416 J-2.831017
G02 X111.390952 Y66.543931 Z-0.125000 I2.251652 J-4.364226
G02 X112.664526 Y66.691430 Z-0.125000 I1.273574 J-5.424568
G02 X114.086817 Y66.493198 Z-0.125000 I0.000000 J-5.201496
G02 X115.161801 Y65.981523 Z-0.125000 I-0.977572 J-3.438853
G02 X116.000935 Y65.145361 Z-0.125000 I-1.985821 J-2.832018
G02 X116.572425 Y63.984913 Z-0.125000 I-3.368344 J-2.379766
G01 X115.283289 Y63.699684 Z-0.125000
G03 X114.822757 Y64.626985 Z-0.125000 I-3.676384 J-1.247823
G03 X114.284380 Y65.176541 Z-0.125000 I-1.775543 J-1.200934
G03 X113.588069 Y65.508250 Z-0.125000 I-1.310478 J-1.854211
G03 X112.637530 Y65.639249 Z-0.125000 I-0.950540 J-3.383120
G03 X111.540766 Y65.494418 Z-0.125000 I0.000000 J-4.225172
G03 X110.727451 Y65.125835 Z-0.125000 I0.714530 J-2.658299
G03 X110.081139 Y64.521950 Z-0.125000 I1.560023 J-2.317427
G03 X109.654295 Y63.744053 Z-0.125000 I2.220213 J-1.724320
G03 X109.422145 Y62.868348 Z-0.125000 I4.929657 J-1.775481
G03 X109.343824 Y61.962949 Z-0.125000 I5.194065 J-0.905399
G03 X109.445493 Y60.797726 Z-0.125000 I6.728106 J0.000000
G03 X109.708292 Y59.890277 Z-0.125000 I4.323045 J0.760184
G03 X110.193939 Y59.111273 Z-0.125000 I2.676534 J1.127721
G03 X110.855690 Y58.571881 Z-0.125000 I1.894915 J1.649142
G03 X111.661250 Y58.246522 Z-0.125000 I1.654233 J2.935806
G03 X112.536287 Y58.134529 Z-0.125000 I0.875038 J3.362475
G03 X113.580352 Y58.297432 Z-0.125000 I-0.000000 J3.427214
G03 X114.399120 Y58.730341 Z-0.125000 I-0.802064 J2.507685
G03 X115.006209 Y59.425219 Z-0.125000 I-1.507470 J1.929655
G03 X115.431778 Y60.498769 Z-0.125000 I-3.312161 J1.934107
G01 X115.431778 Y60.498769 Z-0.125000
G00 Z5.000000

(End cutting path id: path5606)


(Start cutting path id: path5604)
(Change tool to Default tool)

G00 Z5.000000
G00 X98.403055 Y57.240808

G01 Z-0.125000 F500.0(Penetrate)
G01 X98.403055 Y66.532969 Z-0.125000 F1000.000000
G01 X102.790162 Y66.532969 Z-0.125000
G02 X104.098400 Y66.450839 Z-0.125000 I0.000000 J-10.460359
G02 X104.801481 Y66.279431 Z-0.125000 I-0.398741 J-3.163207
G02 X105.414255 Y65.936676 Z-0.125000 I-0.721179 J-2.008451
G02 X105.901633 Y65.398387 Z-0.125000 I-1.426816 J-1.781653
G02 X106.207483 Y64.733179 Z-0.125000 I-2.123257 J-1.379151
G02 X106.313344 Y63.997589 Z-0.125000 I-2.502756 J-0.735590
G02 X106.133664 Y63.083488 Z-0.125000 I-2.415037 J0.000000
G02 X105.631656 Y62.330579 Z-0.125000 I-2.109196 J0.862510
G02 X104.866387 Y61.822946 Z-0.125000 I-1.653349 J1.661816
G02 X103.525846 Y61.468551 Z-0.125000 I-2.024666 J4.945967
G02 X104.029354 Y61.208360 Z-0.125000 I-2.197882 J-4.870500
G02 X104.315524 Y61.005843 Z-0.125000 I-1.033617 J-1.764016
G02 X104.850238 Y60.476396 Z-0.125000 I-3.554284 J-4.124379
G02 X105.402178 Y59.769846 Z-0.125000 I-5.804914 J-5.103516
G01 X107.123273 Y57.240808 Z-0.125000
G01 X105.476420 Y57.240808 Z-0.125000
G01 X104.167039 Y59.174033 Z-0.125000
G03 X103.579300 Y60.000061 Z-0.125000 I-24.081417 J-16.512413
G03 X103.222122 Y60.454400 Z-0.125000 I-7.634945 J-5.634624
G03 X102.827294 Y60.870418 Z-0.125000 I-3.517061 J-2.942558
G03 X102.553933 Y61.075568 Z-0.125000 I-1.108691 J-1.192616
G03 X102.253762 Y61.228655 Z-0.125000 I-1.139326 J-1.863154
G03 X101.959987 Y61.322767 Z-0.125000 I-0.703325 J-1.689885
G03 X101.735742 Y61.351791 Z-0.125000 I-0.325456 J-1.633769
G03 X101.231050 Y61.367136 Z-0.125000 I-0.504692 J-8.291528
G01 X99.712440 Y61.367136 Z-0.125000
G01 X99.712440 Y57.240808 Z-0.125000
G01 X98.403055 Y57.240808 Z-0.125000
G01 X98.403055 Y57.240808 Z-0.125000
G00 Z5.000000

(End cutting path id: path5604)


(Start cutting path id: path5604)
(Change tool to Default tool)

G00 Z5.000000
G00 X99.712440 Y62.431994

G01 Z-0.125000 F500.0(Penetrate)
G01 X102.526937 Y62.431994 Z-0.125000 F1000.000000
G03 X103.415727 Y62.485968 Z-0.125000 I-0.000000 J7.344909
G03 X103.930810 Y62.603131 Z-0.125000 I-0.312798 J2.565947
G03 X104.389339 Y62.843152 Z-0.125000 I-0.592444 J1.689782
G03 X104.700241 Y63.160914 Z-0.125000 I-0.775434 J1.069669
G03 X104.897469 Y63.567894 Z-0.125000 I-1.280859 J0.871999
G03 X104.963467 Y63.997589 Z-0.125000 I-1.365805 J0.429695
G03 X104.829512 Y64.593786 Z-0.125000 I-1.393726 J-0.000000
G03 X104.450514 Y65.081466 Z-0.125000 I-1.287018 J-0.609092
G03 X103.894629 Y65.369629 Z-0.125000 I-0.922896 J-1.100075
G03 X102.844156 Y65.506141 Z-0.125000 I-1.050473 J-3.973468
G01 X99.712440 Y65.506141 Z-0.125000
G01 X99.712440 Y62.431994 Z-0.125000
G01 X99.712440 Y62.431994 Z-0.125000
G00 Z5.000000

(End cutting path id: path5604)


(Start cutting path id: path5602)
(Change tool to Default tool)

G00 Z5.000000
G00 X94.886624 Y66.532969

G01 Z-0.125000 F500.0(Penetrate)
G01 X96.196006 Y66.532969 Z-0.125000 F1000.000000
G01 X96.196006 Y61.164304 Z-0.125000
G02 X96.091915 Y59.783998 Z-0.125000 I-9.203888 J-0.000000
G02 X95.858537 Y58.939511 Z-0.125000 I-3.645585 J0.552982
G02 X95.402856 Y58.217950 Z-0.125000 I-2.273599 J0.931160
G02 X94.636897 Y57.595762 Z-0.125000 I-2.430763 J2.209876
G02 X93.718093 Y57.235006 Z-0.125000 I-1.611666 J2.754313
G02 X92.328605 Y57.082345 Z-0.125000 I-1.389488 J6.247054
G02 X90.970155 Y57.215443 Z-0.125000 I-0.000000 J6.998975
G02 X90.054059 Y57.532376 Z-0.125000 I0.685151 J3.462886
G02 X89.289622 Y58.096054 Z-0.125000 I1.314937 J2.583451
G02 X88.791923 Y58.831756 Z-0.125000 I1.818592 J1.766465
G02 X88.530850 Y59.712114 Z-0.125000 I3.299123 J1.457253
G02 X88.413956 Y61.164304 Z-0.125000 I8.961909 J1.452190
G01 X88.413956 Y66.532969 Z-0.125000
G01 X89.723338 Y66.532969 Z-0.125000
G01 X89.723338 Y61.170644 Z-0.125000
G03 X89.801973 Y59.975478 Z-0.125000 I9.121925 J0.000000
G03 X89.959567 Y59.383203 Z-0.125000 I2.367826 J0.312933
G03 X90.283032 Y58.886391 Z-0.125000 I1.571019 J0.669155
G03 X90.782992 Y58.502159 Z-0.125000 I1.411353 J1.319053
G03 X91.392070 Y58.279737 Z-0.125000 I1.114879 J2.107820
G03 X92.213865 Y58.191574 Z-0.125000 I0.821794 J3.786036
G03 X93.575735 Y58.390605 Z-0.125000 I-0.000000 J4.758829
G03 X94.272429 Y58.806403 Z-0.125000 I-0.473250 J1.584533
G03 X94.674326 Y59.509105 Z-0.125000 I-1.091891 J1.090766
G03 X94.886624 Y61.170644 Z-0.125000 I-6.395807 J1.661539
G01 X94.886624 Y66.532969 Z-0.125000
G01 X94.886624 Y66.532969 Z-0.125000
G00 Z5.000000

(End cutting path id: path5602)


(Start cutting path id: path5600)
(Change tool to Default tool)

G00 Z5.000000
G00 X77.250460 Y61.766456

G01 Z-0.125000 F500.0(Penetrate)
G02 X77.631800 Y63.920574 Z-0.125000 I6.274769 J0.000000 F1000.000000
G02 X78.573340 Y65.385710 Z-0.125000 I3.735231 J-1.365271
G02 X80.044697 Y66.337221 Z-0.125000 I2.998311 J-3.023039
G02 X81.988534 Y66.697769 Z-0.125000 I1.943837 J-5.059665
G02 X83.316268 Y66.535021 Z-0.125000 I-0.000000 J-5.497335
G02 X84.458812 Y66.082938 Z-0.125000 I-1.120282 J-4.501081
G02 X85.427450 Y65.340480 Z-0.125000 I-2.069411 J-3.702918
G02 X86.132662 Y64.365219 Z-0.125000 I-2.954329 J-2.878878
G02 X86.557239 Y63.229960 Z-0.125000 I-4.165047 J-2.204716
G02 X86.713107 Y61.874211 Z-0.125000 I-5.818260 J-1.355749
G02 X86.550635 Y60.502103 Z-0.125000 I-5.875113 J0.000000
G02 X86.105662 Y59.345170 Z-0.125000 I-4.597748 J1.104323
G02 X85.366030 Y58.364560 Z-0.125000 I-3.667605 J1.997074
G02 X84.384566 Y57.652807 Z-0.125000 I-2.852694 J2.901126
G02 X83.235510 Y57.229133 Z-0.125000 I-2.329175 J4.546979
G02 X81.981783 Y57.082345 Z-0.125000 I-1.253727 J5.280688
G02 X80.629831 Y57.251240 Z-0.125000 I-0.000000 J5.495427
G02 X79.484509 Y57.716190 Z-0.125000 I1.112808 J4.384332
G02 X78.514423 Y58.474313 Z-0.125000 I2.191918 J3.804468
G02 X77.817407 Y59.446585 Z-0.125000 I2.985382 J2.876184
G02 X77.393582 Y60.577948 Z-0.125000 I4.529578 J2.341912
G02 X77.250460 Y61.766456 Z-0.125000 I4.863216 J1.188508
G01 X77.250460 Y61.766456 Z-0.125000
G00 Z5.000000

(End cutting path id: path5600)


(Start cutting path id: path5600)
(Change tool to Default tool)

G00 Z5.000000
G00 X78.600336 Y61.747448

G01 Z-0.125000 F500.0(Penetrate)
G03 X78.875023 Y60.180590 Z-0.125000 I4.606157 J-0.000000 F1000.000000
G03 X79.558751 Y59.097977 Z-0.125000 I2.806409 J1.015185
G03 X80.630700 Y58.392665 Z-0.125000 I2.253198 J2.257220
G03 X81.975033 Y58.134534 Z-0.125000 I1.344332 J3.371540
G03 X83.341723 Y58.398792 Z-0.125000 I-0.000000 J3.666262
G03 X84.404815 Y59.110653 Z-0.125000 I-1.154554 J2.873948
G03 X85.081063 Y60.202143 Z-0.125000 I-2.084579 J2.046764
G03 X85.363230 Y61.880556 Z-0.125000 I-4.850761 J1.678413
G03 X85.249096 Y62.988754 Z-0.125000 I-5.437166 J-0.000000
G03 X84.951516 Y63.858150 Z-0.125000 I-3.621526 J-0.753963
G03 X84.443980 Y64.613308 Z-0.125000 I-2.806606 J-1.338166
G03 X83.756875 Y65.170209 Z-0.125000 I-2.172426 J-1.978012
G03 X82.939759 Y65.515668 Z-0.125000 I-1.636377 J-2.731442
G03 X81.995282 Y65.639254 Z-0.125000 I-0.944477 J-3.547176
G03 X80.695147 Y65.403115 Z-0.125000 I-0.000000 J-3.697208
G03 X79.599246 Y64.739194 Z-0.125000 I1.222456 J-3.254281
G03 X78.918235 Y63.703334 Z-0.125000 I1.611670 J-1.801361
G03 X78.600336 Y61.747448 Z-0.125000 I5.857897 J-1.955885
G01 X78.600336 Y61.747448 Z-0.125000
G00 Z5.000000

(End cutting path id: path5600)


(Start cutting path id: path5598)
(Change tool to Default tool)

G00 Z5.000000
G00 X67.970045 Y60.226214

G01 Z-0.125000 F500.0(Penetrate)
G01 X69.205184 Y60.327629 Z-0.125000 F1000.000000
G03 X69.363619 Y59.657788 Z-0.125000 I3.195216 J0.402094
G03 X69.610148 Y59.180373 Z-0.125000 I1.850452 J0.653180
G03 X69.987532 Y58.804663 Z-0.125000 I1.375881 J1.004626
G03 X70.609057 Y58.457789 Z-0.125000 I1.783826 J2.465987
G03 X71.298342 Y58.259067 Z-0.125000 I1.304911 J3.231412
G03 X72.127671 Y58.185235 Z-0.125000 I0.829329 J4.620837
G03 X72.866600 Y58.243293 Z-0.125000 I-0.000000 J4.731370
G03 X73.450551 Y58.394404 Z-0.125000 I-0.489359 J3.094925
G03 X73.980175 Y58.663593 Z-0.125000 I-0.845656 J2.319415
G03 X74.300976 Y58.964864 Z-0.125000 I-0.754640 J1.124996
G03 X74.514340 Y59.356385 Z-0.125000 I-1.122822 J0.865794
G03 X74.584451 Y59.763509 Z-0.125000 I-1.147006 J0.407124
G03 X74.513562 Y60.175153 Z-0.125000 I-1.230625 J0.000000
G03 X74.314474 Y60.524122 Z-0.125000 I-1.072925 J-0.380831
G03 X74.003931 Y60.796150 Z-0.125000 I-0.971426 J-0.795698
G03 X73.423554 Y61.075568 Z-0.125000 I-1.608852 J-2.599271
G03 X73.019325 Y61.200845 Z-0.125000 I-1.443621 J-3.943314
G03 X71.661964 Y61.525597 Z-0.125000 I-11.304717 J-44.251142
G02 X70.315658 Y61.883952 Z-0.125000 I4.279526 J18.785923
G02 X69.751885 Y62.108733 Z-0.125000 I1.067704 J3.497293
G02 X69.102077 Y62.525275 Z-0.125000 I1.512330 J3.074373
G02 X68.692228 Y62.970761 Z-0.125000 I1.329872 J1.634759
G02 X68.437098 Y63.517341 Z-0.125000 I1.702498 J1.127520
G02 X68.348009 Y64.130697 Z-0.125000 I2.066863 J0.613356
G02 X68.453903 Y64.800933 Z-0.125000 I2.174014 J-0.000000
G02 X68.773221 Y65.442756 Z-0.125000 I2.308290 J-0.748071
G02 X69.273370 Y65.962599 Z-0.125000 I1.850219 J-1.279602
G02 X70.015111 Y66.374509 Z-0.125000 I1.867545 J-2.489164
G02 X70.847730 Y66.606282 Z-0.125000 I1.586877 J-4.089239
G02 X71.830698 Y66.691430 Z-0.125000 I0.982968 J-5.631255
G02 X72.912852 Y66.598289 Z-0.125000 I-0.000000 J-6.333037
G02 X73.767774 Y66.355492 Z-0.125000 I-0.724511 J-4.177665
G02 X74.534260 Y65.927749 Z-0.125000 I-1.173049 J-3.002639
G02 X75.063657 Y65.379371 Z-0.125000 I-1.462530 J-1.941630
G02 X75.406838 Y64.696015 Z-0.125000 I-2.169094 J-1.517172
G02 X75.549613 Y63.915190 Z-0.125000 I-2.706999 J-0.898444
G01 X74.294225 Y63.826452 Z-0.125000
G03 X74.050323 Y64.626636 Z-0.125000 I-2.302605 J-0.264589
G03 X73.605787 Y65.157525 Z-0.125000 I-1.410518 J-0.729528
G03 X72.977259 Y65.467075 Z-0.125000 I-1.070501 J-1.380726
G03 X71.884692 Y65.607556 Z-0.125000 I-1.092568 J-4.178405
G03 X70.741600 Y65.473666 Z-0.125000 I0.000000 J-4.946520
G03 X70.150098 Y65.195557 Z-0.125000 I0.368682 J-1.552223
G03 X69.741380 Y64.724349 Z-0.125000 I0.890439 J-1.185212
G03 X69.610148 Y64.213098 Z-0.125000 I0.930239 J-0.511251
G03 X69.710869 Y63.759286 Z-0.125000 I1.072717 J-0.000000
G03 X69.994862 Y63.389100 Z-0.125000 I0.979190 J0.457171
G03 X70.414765 Y63.150568 Z-0.125000 I0.826984 J0.966935
G03 X71.965685 Y62.723562 Z-0.125000 I4.516823 J13.375438
G02 X73.551623 Y62.344243 Z-0.125000 I-6.036830 J-28.745117
G02 X74.159238 Y62.134086 Z-0.125000 I-1.184980 J-4.409542
G02 X74.953847 Y61.674351 Z-0.125000 I-1.575532 J-3.639731
G02 X75.434873 Y61.183320 Z-0.125000 I-1.328832 J-1.782882
G02 X75.737877 Y60.577728 Z-0.125000 I-1.710181 J-1.234277
G02 X75.846587 Y59.864924 Z-0.125000 I-2.282552 J-0.712804
G02 X75.735282 Y59.157832 Z-0.125000 I-2.301646 J-0.000000
G02 X75.394377 Y58.464126 Z-0.125000 I-2.554038 J0.824501
G02 X74.866201 Y57.903967 Z-0.125000 I-2.114291 J1.464485
G02 X74.091744 Y57.443638 Z-0.125000 I-2.171963 J2.772469
G02 X73.228011 Y57.180141 Z-0.125000 I-1.641259 J3.832589
G02 X72.188415 Y57.082345 Z-0.125000 I-1.039595 J5.476691
G02 X70.866081 Y57.189460 Z-0.125000 I-0.000000 J8.215638
G02 X69.934118 Y57.449975 Z-0.125000 I0.703543 J4.314109
G02 X69.113157 Y57.922776 Z-0.125000 I1.311421 J3.226269
G02 X68.509995 Y58.552865 Z-0.125000 I1.807598 J2.334087
G02 X68.123373 Y59.335915 Z-0.125000 I2.460115 J1.701625
G02 X67.970045 Y60.226214 Z-0.125000 I3.046428 J0.983010
G01 X67.970045 Y60.226214 Z-0.125000
G00 Z5.000000

(End cutting path id: path5598)


(Start cutting path id: path5596)
(Change tool to Default tool)

G00 Z5.000000
G00 X54.579245 Y57.240808

G01 Z-0.125000 F500.0(Penetrate)
G01 X54.579245 Y66.532969 Z-0.125000 F1000.000000
G01 X55.922377 Y66.532969 Z-0.125000
G01 X61.119408 Y59.237419 Z-0.125000
G01 X61.119408 Y66.532969 Z-0.125000
G01 X62.374796 Y66.532969 Z-0.125000
G01 X62.374796 Y57.240808 Z-0.125000
G01 X61.031667 Y57.240808 Z-0.125000
G01 X55.834633 Y64.542696 Z-0.125000
G01 X55.834633 Y57.240808 Z-0.125000
G01 X54.579245 Y57.240808 Z-0.125000
G01 X54.579245 Y57.240808 Z-0.125000
G00 Z5.000000

(End cutting path id: path5596)


(Start cutting path id: path5594)
(Change tool to Default tool)

G00 Z5.000000
G00 X45.386574 Y57.240808

G01 Z-0.125000 F500.0(Penetrate)
G01 X45.386574 Y66.532969 Z-0.125000 F1000.000000
G01 X52.540930 Y66.532969 Z-0.125000
G01 X52.540930 Y65.436416 Z-0.125000
G01 X46.695956 Y65.436416 Z-0.125000
G01 X46.695956 Y62.590455 Z-0.125000
G01 X52.169714 Y62.590455 Z-0.125000
G01 X52.169714 Y61.500244 Z-0.125000
G01 X46.695956 Y61.500244 Z-0.125000
G01 X46.695956 Y58.337358 Z-0.125000
G01 X52.770408 Y58.337358 Z-0.125000
G01 X52.770408 Y57.240808 Z-0.125000
G01 X45.386574 Y57.240808 Z-0.125000
G01 X45.386574 Y57.240808 Z-0.125000
G00 Z5.000000

(End cutting path id: path5594)


(Start cutting path id: path5592)
(Change tool to Default tool)

G00 Z5.000000
G00 X36.126406 Y57.240808

G01 Z-0.125000 F500.0(Penetrate)
G01 X36.126406 Y66.532969 Z-0.125000 F1000.000000
G01 X39.858820 Y66.532969 Z-0.125000
G02 X40.841777 Y66.504018 Z-0.125000 I-0.000000 J-16.701162
G02 X41.363935 Y66.444231 Z-0.125000 I-0.280769 J-4.762199
G02 X42.067712 Y66.264885 Z-0.125000 I-0.596586 J-3.811604
G02 X42.585576 Y66.006879 Z-0.125000 I-0.825257 J-2.305162
G02 X43.018264 Y65.635448 Z-0.125000 I-1.123218 J-1.746205
G02 X43.375253 Y65.113158 Z-0.125000 I-1.914991 J-1.692057
G02 X43.599683 Y64.516758 Z-0.125000 I-2.265569 J-1.192975
G02 X43.678977 Y63.845468 Z-0.125000 I-2.801844 J-0.671289
G02 X43.467414 Y62.746230 Z-0.125000 I-2.961491 J0.000000
G02 X42.875798 Y61.836181 Z-0.125000 I-2.585593 J1.033548
G02 X41.957626 Y61.292674 Z-0.125000 I-1.481213 J1.454973
G02 X39.973560 Y61.018520 Z-0.125000 I-1.984066 J7.042318
G01 X37.435787 Y61.018520 Z-0.125000
G01 X37.435787 Y57.240808 Z-0.125000
G01 X36.126406 Y57.240808 Z-0.125000
G01 X36.126406 Y57.240808 Z-0.125000
G00 Z5.000000

(End cutting path id: path5592)


(Start cutting path id: path5592)
(Change tool to Default tool)

G00 Z5.000000
G00 X37.435787 Y62.115073

G01 Z-0.125000 F500.0(Penetrate)
G01 X39.993809 Y62.115073 Z-0.125000 F1000.000000
G03 X41.209374 Y62.262513 Z-0.125000 I0.000000 J5.084575
G03 X41.795895 Y62.558762 Z-0.125000 I-0.350051 J1.421766
G03 X42.178832 Y63.072900 Z-0.125000 I-0.874706 J1.051170
G03 X42.329097 Y63.807436 Z-0.125000 I-1.720165 J0.734536
G03 X42.242962 Y64.361257 Z-0.125000 I-1.823507 J0.000000
G03 X42.011878 Y64.802574 Z-0.125000 I-1.372485 J-0.437506
G03 X41.651110 Y65.146299 Z-0.125000 I-1.174919 J-0.871985
G03 X41.188450 Y65.354018 Z-0.125000 I-0.843338 J-1.259292
G03 X40.854062 Y65.406528 Z-0.125000 I-0.463374 J-1.859825
G03 X39.966810 Y65.436416 Z-0.125000 I-0.887253 J-13.154374
G01 X37.435787 Y65.436416 Z-0.125000
G01 X37.435787 Y62.115073 Z-0.125000
G01 X37.435787 Y62.115073 Z-0.125000
G00 Z5.000000

(End cutting path id: path5592)


(Start cutting path id: path5590)
(Change tool to Default tool)

G00 Z5.000000
G00 X24.983158 Y61.766456

G01 Z-0.125000 F500.0(Penetrate)
G02 X25.364499 Y63.920574 Z-0.125000 I6.274765 J0.000000 F1000.000000
G02 X26.306039 Y65.385710 Z-0.125000 I3.735231 J-1.365272
G02 X27.777397 Y66.337221 Z-0.125000 I2.998315 J-3.023045
G02 X29.721233 Y66.697769 Z-0.125000 I1.943835 J-5.059660
G02 X31.048967 Y66.535021 Z-0.125000 I0.000000 J-5.497335
G02 X32.191511 Y66.082938 Z-0.125000 I-1.120282 J-4.501081
G02 X33.160148 Y65.340480 Z-0.125000 I-2.069411 J-3.702918
G02 X33.865360 Y64.365219 Z-0.125000 I-2.954329 J-2.878878
G02 X34.289940 Y63.229959 Z-0.125000 I-4.165031 J-2.204719
G02 X34.445808 Y61.874211 Z-0.125000 I-5.818230 J-1.355749
G02 X34.283336 Y60.502104 Z-0.125000 I-5.875085 J0.000000
G02 X33.838361 Y59.345170 Z-0.125000 I-4.597735 J1.104326
G02 X33.098729 Y58.364560 Z-0.125000 I-3.667616 J1.997080
G02 X32.117268 Y57.652807 Z-0.125000 I-2.852693 J2.901120
G02 X30.968209 Y57.229133 Z-0.125000 I-2.329183 J4.547006
G02 X29.714482 Y57.082345 Z-0.125000 I-1.253727 J5.280695
G02 X28.362532 Y57.251240 Z-0.125000 I-0.000000 J5.495420
G02 X27.217207 Y57.716190 Z-0.125000 I1.112812 J4.384348
G02 X26.247123 Y58.474313 Z-0.125000 I2.191917 J3.804463
G02 X25.550107 Y59.446585 Z-0.125000 I2.985381 J2.876181
G02 X25.126281 Y60.577949 Z-0.125000 I4.529565 J2.341913
G02 X24.983158 Y61.766456 Z-0.125000 I4.863198 J1.188508
G01 X24.983158 Y61.766456 Z-0.125000
G00 Z5.000000

(End cutting path id: path5590)


(Start cutting path id: path5590)
(Change tool to Default tool)

G00 Z5.000000
G00 X26.333037 Y61.747448

G01 Z-0.125000 F500.0(Penetrate)
G03 X26.607723 Y60.180590 Z-0.125000 I4.606161 J0.000000 F1000.000000
G03 X27.291450 Y59.097977 Z-0.125000 I2.806409 J1.015184
G03 X28.363400 Y58.392665 Z-0.125000 I2.253198 J2.257222
G03 X29.707734 Y58.134534 Z-0.125000 I1.344334 J3.371547
G03 X31.074422 Y58.398792 Z-0.125000 I-0.000000 J3.666251
G03 X32.137514 Y59.110653 Z-0.125000 I-1.154557 J2.873951
G03 X32.813761 Y60.202143 Z-0.125000 I-2.084579 J2.046764
G03 X33.095929 Y61.880556 Z-0.125000 I-4.850761 J1.678413
G03 X32.981795 Y62.988754 Z-0.125000 I-5.437166 J-0.000000
G03 X32.684215 Y63.858150 Z-0.125000 I-3.621526 J-0.753963
G03 X32.176679 Y64.613308 Z-0.125000 I-2.806606 J-1.338166
G03 X31.489574 Y65.170209 Z-0.125000 I-2.172426 J-1.978012
G03 X30.672457 Y65.515668 Z-0.125000 I-1.636377 J-2.731442
G03 X29.727980 Y65.639254 Z-0.125000 I-0.944477 J-3.547176
G03 X28.427846 Y65.403115 Z-0.125000 I-0.000000 J-3.697203
G03 X27.331947 Y64.739194 Z-0.125000 I1.222456 J-3.254277
G03 X26.650935 Y63.703334 Z-0.125000 I1.611670 J-1.801361
G03 X26.333037 Y61.747448 Z-0.125000 I5.857896 J-1.955885
G01 X26.333037 Y61.747448 Z-0.125000
G00 Z5.000000

(End cutting path id: path5590)


(Start cutting path id: path5621)
(Change tool to Default tool)

G00 Z5.000000
G00 X109.726666 Y42.518261

G01 Z-0.125000 F500.0(Penetrate)
G01 X112.736394 Y42.991703 Z-0.125000 F1000.000000
G03 X113.257312 Y41.330672 Z-0.125000 I5.259937 J0.737378
G03 X114.139809 Y40.218695 Z-0.125000 I3.151590 J1.595014
G03 X115.409782 Y39.542092 Z-0.125000 I2.295945 J2.779295
G03 X117.386259 Y39.254903 Z-0.125000 I1.976477 J6.657594
G03 X119.386292 Y39.521807 Z-0.125000 I-0.000000 J7.627017
G03 X120.497440 Y40.100333 Z-0.125000 I-0.770929 J2.837017
G03 X121.265588 Y41.076602 Z-0.125000 I-2.028311 J2.386248
G03 X121.511955 Y42.112457 Z-0.125000 I-2.054445 J1.035854
G03 X121.278514 Y43.018290 Z-0.125000 I-1.874196 J-0.000000
G03 X120.615801 Y43.735680 Z-0.125000 I-1.788530 J-0.987417
G03 X119.952228 Y44.054401 Z-0.125000 I-1.573391 J-2.425641
G03 X117.504620 Y44.767106 Z-0.125000 I-10.910735 J-32.911002
G02 X114.189090 Y45.703375 Z-0.125000 I15.135419 J59.936431
G02 X112.854755 Y46.221245 Z-0.125000 I3.184623 J10.183394
G02 X111.696579 Y46.987889 Z-0.125000 I2.315541 J4.756262
G02 X110.893358 Y47.929011 Z-0.125000 I2.756615 J3.166016
G02 X110.404227 Y49.075243 Z-0.125000 I3.909999 J2.345994
G02 X110.233923 Y50.346942 Z-0.125000 I4.662900 J1.271698
G02 X110.374205 Y51.512383 Z-0.125000 I4.911320 J-0.000000
G02 X110.774997 Y52.561969 Z-0.125000 I4.370546 J-1.067611
G02 X111.432950 Y53.505142 Z-0.125000 I4.476583 J-2.421763
G02 X112.279862 Y54.269735 Z-0.125000 I3.759109 J-3.312487
G02 X113.030773 Y54.711619 Z-0.125000 I2.493341 J-3.378063
G02 X114.207443 Y55.148981 Z-0.125000 I3.617031 J-7.929654
G02 X115.456137 Y55.423509 Z-0.125000 I2.419711 J-8.028989
G02 X116.845182 Y55.520973 Z-0.125000 I1.389045 J-9.849521
G02 X118.927320 Y55.350978 Z-0.125000 I-0.000000 J-12.836304
G02 X120.548166 Y54.912262 Z-0.125000 I-1.345226 J-8.183442
G02 X122.023403 Y54.132052 Z-0.125000 I-2.385882 J-6.296087
G02 X122.915367 Y53.255219 Z-0.125000 I-2.168894 J-3.098416
G02 X123.514121 Y52.155327 Z-0.125000 I-3.687541 J-2.720324
G02 X123.963702 Y50.482211 Z-0.125000 I-8.203341 J-3.101268
G01 X120.987790 Y50.076404 Z-0.125000
G03 X120.566077 Y51.336813 Z-0.125000 I-3.722617 J-0.544775
G03 X119.804186 Y52.240704 Z-0.125000 I-2.611415 J-1.428119
G03 X118.757191 Y52.782906 Z-0.125000 I-1.852900 J-2.295980
G03 X117.064994 Y53.018500 Z-0.125000 I-1.692197 J-5.959472
G03 X115.047130 Y52.787846 Z-0.125000 I0.000000 J-8.941901
G03 X114.072174 Y52.325246 Z-0.125000 I0.569671 J-2.459307
G03 X113.388777 Y51.527594 Z-0.125000 I1.586473 J-2.050809
G03 X113.176020 Y50.702023 Z-0.125000 I1.495376 J-0.825572
G03 X113.270818 Y50.143009 Z-0.125000 I1.695611 J-0.000000
G03 X113.548008 Y49.636780 Z-0.125000 I1.658674 J0.579219
G03 X113.978832 Y49.223347 Z-0.125000 I1.521242 J1.154043
G03 X114.714701 Y48.825169 Z-0.125000 I2.141002 J3.077692
G03 X115.176666 Y48.673020 Z-0.125000 I2.311859 J6.242042
G03 X117.403167 Y48.047373 Z-0.125000 I41.826824 J144.575172
G02 X120.607782 Y47.114051 Z-0.125000 I-19.157340 J-71.746119
G02 X121.900852 Y46.627050 Z-0.125000 I-3.832225 J-12.135368
G02 X123.066368 Y45.938598 Z-0.125000 I-1.951172 J-4.634048
G02 X123.912975 Y45.037642 Z-0.125000 I-2.599739 J-3.291160
G02 X124.435701 Y43.925384 Z-0.125000 I-3.036754 J-2.106138
G02 X124.640044 Y42.433719 Z-0.125000 I-5.342246 J-1.491666
G02 X124.418488 Y40.978678 Z-0.125000 I-4.888676 J-0.000000
G02 X123.743890 Y39.559257 Z-0.125000 I-5.321236 J1.658971
G02 X122.706062 Y38.410445 Z-0.125000 I-4.255060 J2.800800
G02 X121.190693 Y37.479502 Z-0.125000 I-4.245598 J5.212079
G02 X119.475777 Y36.949567 Z-0.125000 I-3.255430 J7.495073
G02 X117.403167 Y36.752433 Z-0.125000 I-2.072610 J10.796861
G02 X114.058209 Y37.199471 Z-0.125000 I0.000000 J12.737815
G02 X112.060051 Y38.206571 Z-0.125000 I1.470580 J5.403530
G02 X110.639845 Y39.902380 Z-0.125000 I3.448450 J4.330610
G02 X109.726666 Y42.518261 Z-0.125000 I7.638925 J4.134007
G01 X109.726666 Y42.518261 Z-0.125000
G00 Z5.000000

(End cutting path id: path5621)


(Start cutting path id: path5619)
(Change tool to Default tool)

G00 Z5.000000
G00 X90.535408 Y46.136703

G01 Z-0.125000 F500.0(Penetrate)
G02 X91.371254 Y50.742831 Z-0.125000 I13.109498 J-0.000000 F1000.000000
G02 X93.308416 Y53.525757 Z-0.125000 I6.439111 J-2.416508
G02 X95.824253 Y54.984041 Z-0.125000 I5.138921 J-5.966378
G02 X98.955889 Y55.520973 Z-0.125000 I3.131636 J-8.864122
G02 X102.377623 Y54.858591 Z-0.125000 I-0.000000 J-9.169190
G02 X105.009166 Y53.086134 Z-0.125000 I-2.835702 J-7.049868
G02 X106.677638 Y50.391433 Z-0.125000 I-5.282226 J-5.134465
G02 X107.359459 Y46.390330 Z-0.125000 I-11.398833 J-4.001103
G02 X107.037352 Y43.003539 Z-0.125000 I-17.966227 J0.000000
G02 X106.311128 Y40.928853 Z-0.125000 I-7.365704 J1.413848
G02 X105.041531 Y39.183327 Z-0.125000 I-6.478865 J3.377878
G02 X103.284489 Y37.851491 Z-0.125000 I-5.435416 J5.345824
G02 X101.232460 Y37.036937 Z-0.125000 I-4.160187 J7.488347
G02 X98.955889 Y36.752433 Z-0.125000 I-2.276571 J8.966192
G02 X95.467959 Y37.418093 Z-0.125000 I-0.000000 J9.470861
G02 X92.851885 Y39.170360 Z-0.125000 I2.742564 J6.923541
G02 X91.226843 Y41.866052 Z-0.125000 I5.173412 J4.956342
G02 X90.535408 Y46.136703 Z-0.125000 I12.843127 J4.270650
G01 X90.535408 Y46.136703 Z-0.125000
G00 Z5.000000

(End cutting path id: path5619)


(Start cutting path id: path5619)
(Change tool to Default tool)

G00 Z5.000000
G00 X93.663497 Y46.136703

G01 Z-0.125000 F500.0(Penetrate)
G03 X94.130015 Y42.862266 Z-0.125000 I11.724692 J-0.000000 F1000.000000
G03 X95.168362 Y40.962672 Z-0.125000 I4.823115 J1.402802
G03 X96.875291 Y39.702279 Z-0.125000 I3.775198 J3.326658
G03 X98.955889 Y39.254903 Z-0.125000 I2.080598 J4.614395
G03 X101.017472 Y39.704011 Z-0.125000 I-0.000000 J4.956293
G03 X102.726505 Y40.979580 Z-0.125000 I-2.106061 J4.604425
G03 X103.760434 Y42.880831 Z-0.125000 I-3.746975 J3.269420
G03 X104.231370 Y46.238153 Z-0.125000 I-11.731764 J3.357322
G03 X103.765552 Y49.391715 Z-0.125000 I-10.907614 J-0.000000
G03 X102.709597 Y51.276915 Z-0.125000 I-4.797604 J-1.448940
G03 X101.001333 Y52.554175 Z-0.125000 I-3.830942 J-3.342685
G03 X98.955889 Y53.001592 Z-0.125000 I-2.045444 J-4.451848
G03 X96.875291 Y52.554215 Z-0.125000 I-0.000000 J-5.061771
G03 X95.168362 Y51.293823 Z-0.125000 I2.068269 J-4.587051
G03 X94.131232 Y49.409376 Z-0.125000 I3.710795 J-3.269907
G03 X93.663497 Y46.136703 Z-0.125000 I11.215336 J-3.272673
G01 X93.663497 Y46.136703 Z-0.125000
G00 Z5.000000

(End cutting path id: path5619)


(Start cutting path id: path5617)
(Change tool to Default tool)

G00 Z5.000000
G00 X86.071541 Y43.735680

G01 Z-0.125000 F500.0(Penetrate)
G01 X89.064361 Y43.346784 Z-0.125000 F1000.000000
G02 X88.127416 Y40.500523 Z-0.125000 I-9.239662 J1.464210
G02 X86.544980 Y38.494018 Z-0.125000 I-6.038282 J3.134858
G02 X84.356940 Y37.224479 Z-0.125000 I-4.435966 J5.125050
G02 X81.590761 Y36.752433 Z-0.125000 I-2.766179 J7.868843
G02 X78.191481 Y37.413993 Z-0.125000 I0.000000 J9.064008
G02 X75.655845 Y39.153452 Z-0.125000 I2.680013 J6.624539
G02 X74.090696 Y41.832083 Z-0.125000 I5.303275 J4.895334
G02 X73.423910 Y46.069068 Z-0.125000 I13.128235 J4.236985
G02 X73.691552 Y48.920850 Z-0.125000 I15.327018 J0.000000
G02 X74.387702 Y51.158554 Z-0.125000 I10.080728 J-1.908979
G02 X75.631070 Y53.083789 Z-0.125000 I6.687948 J-2.955138
G02 X77.312887 Y54.421912 Z-0.125000 I4.788000 J-4.291833
G02 X79.364393 Y55.238490 Z-0.125000 I4.190952 J-7.543705
G02 X81.607672 Y55.520973 Z-0.125000 I2.243279 J-8.766028
G02 X84.384887 Y55.099141 Z-0.125000 I0.000000 J-9.353094
G02 X86.392803 Y54.033015 Z-0.125000 I-1.819018 J-5.849793
G02 X87.860135 Y52.323453 Z-0.125000 I-3.655843 J-4.622336
G02 X88.776915 Y49.839684 Z-0.125000 I-7.075203 J-4.022595
G01 X85.817911 Y49.383153 Z-0.125000
G03 X85.174021 Y51.056850 Z-0.125000 I-6.359496 J-1.485865
G03 X84.313046 Y52.105435 Z-0.125000 I-3.271709 J-1.808586
G03 X83.157122 Y52.773364 Z-0.125000 I-2.365829 J-2.760133
G03 X81.726030 Y53.018500 Z-0.125000 I-1.431092 J-4.054756
G03 X79.629133 Y52.574428 Z-0.125000 I-0.000000 J-5.172786
G03 X77.989233 Y51.361457 Z-0.125000 I1.898988 J-4.282408
G03 X77.011838 Y49.548355 Z-0.125000 I3.469579 J-3.040352
G03 X76.552002 Y46.153611 Z-0.125000 I12.300953 J-3.394744
G03 X76.999771 Y42.699076 Z-0.125000 I13.549732 J-0.000000
G03 X77.938506 Y40.895037 Z-0.125000 I4.465586 J1.177421
G03 X79.528407 Y39.693181 Z-0.125000 I3.460748 J2.925578
G03 X81.556945 Y39.254903 Z-0.125000 I2.028538 J4.475330
G03 X83.233412 Y39.552997 Z-0.125000 I-0.000000 J4.863232
G03 X84.549765 Y40.353964 Z-0.125000 I-1.372866 J3.738411
G03 X85.456541 Y41.607686 Z-0.125000 I-2.587188 J2.826010
G03 X86.071541 Y43.735680 Z-0.125000 I-7.160815 J3.222374
G01 X86.071541 Y43.735680 Z-0.125000
G00 Z5.000000

(End cutting path id: path5617)


(Start cutting path id: path5615)
(Change tool to Default tool)

G00 Z5.000000
G00 X62.754589 Y37.158237

G01 Z-0.125000 F500.0(Penetrate)
G01 X62.754589 Y55.115165 Z-0.125000 F1000.000000
G01 X65.493782 Y55.115165 Z-0.125000
G01 X65.493782 Y52.392881 Z-0.125000
G02 X66.665946 Y54.191942 Z-0.125000 I12.456236 J-6.834380
G02 X67.421360 Y54.912262 Z-0.125000 I2.666494 J-2.040134
G02 X68.364966 Y55.366669 Z-0.125000 I1.997100 J-2.940173
G02 X69.382756 Y55.520973 Z-0.125000 I1.017790 J-3.279536
G02 X70.857401 Y55.295229 Z-0.125000 I0.000000 J-4.929348
G02 X72.510848 Y54.540273 Z-0.125000 I-2.189135 J-6.982583
G01 X71.462514 Y51.716538 Z-0.125000
G03 X70.304101 Y52.220702 Z-0.125000 I-2.614738 J-4.424938
G03 X69.230579 Y52.375973 Z-0.125000 I-1.073522 J-3.633461
G03 X68.285867 Y52.219927 Z-0.125000 I-0.000000 J-2.937705
G03 X67.438268 Y51.767265 Z-0.125000 I0.951406 J-2.801368
G03 X66.777951 Y51.079713 Z-0.125000 I1.727892 J-2.320303
G03 X66.305394 Y50.110222 Z-0.125000 I3.056987 J-2.089977
G03 X65.933655 Y48.466314 Z-0.125000 I10.003462 J-3.126078
G03 X65.798136 Y46.559415 Z-0.125000 I13.348303 J-1.906899
G01 X65.798136 Y37.158237 Z-0.125000
G01 X62.754589 Y37.158237 Z-0.125000
G01 X62.754589 Y37.158237 Z-0.125000
G00 Z5.000000

(End cutting path id: path5615)


(Start cutting path id: path5613)
(Change tool to Default tool)

G00 Z5.000000
G00 X55.805155 Y42.940976

G01 Z-0.125000 F500.0(Penetrate)
G01 X58.950152 Y42.552080 Z-0.125000 F1000.000000
G02 X57.836685 Y40.045231 Z-0.125000 I-8.613301 J2.325061
G02 X56.194052 Y38.274206 Z-0.125000 I-5.815960 J3.747041
G02 X54.036864 Y37.184726 Z-0.125000 I-4.074801 J5.387795
G02 X51.053839 Y36.752433 Z-0.125000 I-2.983025 J10.075996
G02 X47.404650 Y37.433080 Z-0.125000 I0.000000 J10.122613
G02 X44.797659 Y39.170360 Z-0.125000 I2.599092 J6.724929
G02 X43.173054 Y41.873550 Z-0.125000 I5.356796 J5.059196
G02 X42.498089 Y45.984526 Z-0.125000 I12.181789 J4.110976
G02 X43.186307 Y50.244948 Z-0.125000 I13.531218 J0.000000
G02 X44.831477 Y53.018500 Z-0.125000 I7.170884 J-2.378805
G02 X47.460510 Y54.841072 Z-0.125000 I5.504246 J-5.132333
G02 X50.884754 Y55.520973 Z-0.125000 I3.424245 J-8.282968
G02 X54.197857 Y54.858352 Z-0.125000 I-0.000000 J-8.614065
G02 X56.768944 Y53.069226 Z-0.125000 I-2.847510 J-6.834022
G02 X58.377725 Y50.352340 Z-0.125000 I-5.413964 J-5.040590
G02 X59.051605 Y46.170519 Z-0.125000 I-12.638390 J-4.181821
G02 X59.048788 Y45.900024 Z-0.125000 I-12.989204 J0.000000
G02 X59.034700 Y45.358907 Z-0.125000 I-51.999945 J1.083110
G01 X45.643092 Y45.358907 Z-0.125000
G03 X46.222574 Y42.578397 Z-0.125000 I9.589987 J0.547996
G03 X47.317042 Y40.827403 Z-0.125000 I4.762515 J1.759286
G03 X48.999716 Y39.671175 Z-0.125000 I3.617165 J3.461588
G03 X51.070750 Y39.254903 Z-0.125000 I2.071034 J4.943756
G03 X52.665384 Y39.494684 Z-0.125000 I-0.000000 J5.422347
G03 X53.928304 Y40.134149 Z-0.125000 I-1.228856 J3.993785
G03 X54.908643 Y41.164282 Z-0.125000 I-2.488154 J3.349426
G03 X55.805158 Y42.940976 Z-0.125000 I-6.792748 J4.542138
G01 X55.805155 Y42.940976 Z-0.125000
G00 Z5.000000

(End cutting path id: path5613)


(Start cutting path id: path5613)
(Change tool to Default tool)

G00 Z5.000000
G00 X45.812174 Y47.861380

G01 Z-0.125000 F500.0(Penetrate)
G01 X55.838971 Y47.861380 Z-0.125000 F1000.000000
G03 X55.383395 Y50.022452 Z-0.125000 I-9.307102 J-0.833474
G03 X54.689186 Y51.260007 Z-0.125000 I-3.653762 J-1.236099
G03 X53.016141 Y52.553425 Z-0.125000 I-3.705142 J-3.063868
G03 X50.918570 Y53.018500 Z-0.125000 I-2.097571 J-4.497678
G03 X48.973444 Y52.646401 Z-0.125000 I0.000000 J-5.270071
G03 X47.384674 Y51.615088 Z-0.125000 I1.779391 J-4.480639
G03 X46.325478 Y50.046916 Z-0.125000 I3.391994 J-3.432860
G03 X45.812174 Y47.861380 Z-0.125000 I6.264691 J-2.624399
G01 X45.812174 Y47.861380 Z-0.125000
G00 Z5.000000

(End cutting path id: path5613)


(Start cutting path id: path5611)
(Change tool to Default tool)

G00 Z5.000000
G00 X24.980787 Y42.518261

G01 Z-0.125000 F500.0(Penetrate)
G01 X27.990516 Y42.991703 Z-0.125000 F1000.000000
G03 X28.511434 Y41.330672 Z-0.125000 I5.259932 J0.737374
G03 X29.393930 Y40.218695 Z-0.125000 I3.151587 J1.595012
G03 X30.663903 Y39.542092 Z-0.125000 I2.295945 J2.779295
G03 X32.640380 Y39.254903 Z-0.125000 I1.976477 J6.657594
G03 X34.640413 Y39.521807 Z-0.125000 I-0.000000 J7.627017
G03 X35.751561 Y40.100333 Z-0.125000 I-0.770929 J2.837017
G03 X36.519709 Y41.076602 Z-0.125000 I-2.028311 J2.386248
G03 X36.766077 Y42.112457 Z-0.125000 I-2.054445 J1.035854
G03 X36.532636 Y43.018290 Z-0.125000 I-1.874196 J0.000000
G03 X35.869923 Y43.735680 Z-0.125000 I-1.788530 J-0.987417
G03 X35.206349 Y44.054401 Z-0.125000 I-1.573391 J-2.425641
G03 X32.758741 Y44.767106 Z-0.125000 I-10.910735 J-32.911002
G02 X29.443212 Y45.703375 Z-0.125000 I15.135414 J59.936413
G02 X28.108877 Y46.221245 Z-0.125000 I3.184621 J10.183387
G02 X26.950701 Y46.987889 Z-0.125000 I2.315544 J4.756266
G02 X26.147480 Y47.929011 Z-0.125000 I2.756622 J3.166025
G02 X25.658348 Y49.075243 Z-0.125000 I3.909998 J2.345994
G02 X25.488044 Y50.346942 Z-0.125000 I4.662898 J1.271698
G02 X25.628326 Y51.512383 Z-0.125000 I4.911307 J-0.000000
G02 X26.029119 Y52.561969 Z-0.125000 I4.370539 J-1.067612
G02 X26.687072 Y53.505141 Z-0.125000 I4.476574 J-2.421755
G02 X27.533984 Y54.269735 Z-0.125000 I3.759105 J-3.312482
G02 X28.284894 Y54.711619 Z-0.125000 I2.493339 J-3.378059
G02 X29.461565 Y55.148981 Z-0.125000 I3.617030 J-7.929650
G02 X30.710259 Y55.423509 Z-0.125000 I2.419711 J-8.028989
G02 X32.099304 Y55.520973 Z-0.125000 I1.389045 J-9.849521
G02 X34.181441 Y55.350978 Z-0.125000 I-0.000000 J-12.836304
G02 X35.802288 Y54.912262 Z-0.125000 I-1.345226 J-8.183442
G02 X37.277525 Y54.132052 Z-0.125000 I-2.385882 J-6.296087
G02 X38.169489 Y53.255219 Z-0.125000 I-2.168894 J-3.098416
G02 X38.768243 Y52.155327 Z-0.125000 I-3.687541 J-2.720324
G02 X39.217823 Y50.482211 Z-0.125000 I-8.203341 J-3.101268
G01 X36.241911 Y50.076404 Z-0.125000
G03 X35.820198 Y51.336813 Z-0.125000 I-3.722617 J-0.544775
G03 X35.058308 Y52.240704 Z-0.125000 I-2.611415 J-1.428119
G03 X34.011313 Y52.782906 Z-0.125000 I-1.852900 J-2.295980
G03 X32.319115 Y53.018500 Z-0.125000 I-1.692197 J-5.959472
G03 X30.301252 Y52.787846 Z-0.125000 I0.000000 J-8.941901
G03 X29.326295 Y52.325246 Z-0.125000 I0.569671 J-2.459307
G03 X28.642898 Y51.527594 Z-0.125000 I1.586473 J-2.050809
G03 X28.430141 Y50.702023 Z-0.125000 I1.495376 J-0.825572
G03 X28.524940 Y50.143009 Z-0.125000 I1.695611 J0.000000
G03 X28.802130 Y49.636780 Z-0.125000 I1.658674 J0.579219
G03 X29.232954 Y49.223347 Z-0.125000 I1.521242 J1.154043
G03 X29.968822 Y48.825169 Z-0.125000 I2.141002 J3.077692
G03 X30.430788 Y48.673020 Z-0.125000 I2.311859 J6.242042
G03 X32.657288 Y48.047373 Z-0.125000 I41.826824 J144.575172
G02 X35.861903 Y47.114051 Z-0.125000 I-19.157340 J-71.746119
G02 X37.154973 Y46.627050 Z-0.125000 I-3.832225 J-12.135368
G02 X38.320490 Y45.938598 Z-0.125000 I-1.951172 J-4.634048
G02 X39.167097 Y45.037642 Z-0.125000 I-2.599739 J-3.291160
G02 X39.689822 Y43.925384 Z-0.125000 I-3.036754 J-2.106138
G02 X39.894166 Y42.433719 Z-0.125000 I-5.342246 J-1.491666
G02 X39.672610 Y40.978678 Z-0.125000 I-4.888676 J-0.000000
G02 X38.998012 Y39.559257 Z-0.125000 I-5.321236 J1.658971
G02 X37.960183 Y38.410445 Z-0.125000 I-4.255060 J2.800800
G02 X36.444815 Y37.479502 Z-0.125000 I-4.245598 J5.212079
G02 X34.729898 Y36.949567 Z-0.125000 I-3.255430 J7.495073
G02 X32.657288 Y36.752433 Z-0.125000 I-2.072610 J10.796861
G02 X29.312331 Y37.199471 Z-0.125000 I0.000000 J12.737815
G02 X27.314173 Y38.206571 Z-0.125000 I1.470580 J5.403528
G02 X25.893966 Y39.902380 Z-0.125000 I3.448449 J4.330612
G02 X24.980787 Y42.518261 Z-0.125000 I7.638921 J4.134006
G01 X24.980787 Y42.518261 Z-0.125000
G00 Z5.000000

(End cutting path id: path5611)


(Start cutting path id: path4415)
(Change tool to Default tool)

G00 Z5.000000
G00 X40.965222 Y8.838609

G01 Z-0.125000 F500.0(Penetrate)
G03 X40.644426 Y10.550584 Z-0.125000 I-2.181981 J0.477177 F1000.000000
G03 X39.463668 Y11.599525 Z-0.125000 I-2.572458 J-1.706690
G03 X37.715851 Y12.072682 Z-0.125000 I-2.021560 J-4.002785
G03 X36.401985 Y11.764604 Z-0.125000 I-0.143370 J-2.344237
G02 X35.463365 Y9.867874 Z-0.125000 I-4.822016 J1.205623
G02 X34.231417 Y8.976524 Z-0.125000 I-2.223829 J1.776565
G02 X32.712265 Y8.837171 Z-0.125000 I-1.016860 J2.735101
G02 X30.654363 Y9.656940 Z-0.125000 I0.931695 J5.331780
G02 X29.263992 Y10.566037 Z-0.125000 I0.073518 J1.630202
G02 X29.072045 Y11.755284 Z-0.125000 I1.842165 J0.907443
G02 X29.319846 Y13.420860 Z-0.125000 I83.134222 J-11.517332
G03 X28.852063 Y14.540570 Z-0.125000 I-1.139990 J0.181313
G03 X27.065082 Y15.531818 Z-0.125000 I-2.776539 J-2.899057
G03 X25.715928 Y15.506462 Z-0.125000 I-0.628385 J-2.470408
G03 X24.335694 Y14.819520 Z-0.125000 I1.250935 J-4.243521
G03 X22.865533 Y13.626960 Z-0.125000 I12.632897 J-17.076023
G02 X19.490654 Y15.781256 Z-0.125000 I2.657624 J7.884040
G02 X19.466092 Y19.945986 Z-0.125000 I2.206171 J2.095448
G03 X18.987668 Y21.530065 Z-0.125000 I-0.906730 J0.590435
G02 X17.579335 Y22.803063 Z-0.125000 I1.166359 J2.705883
G03 X15.540414 Y22.780616 Z-0.125000 I-1.011985 J-0.690219
G02 X13.204942 Y21.993035 Z-0.125000 I-1.665820 J1.083212
G02 X11.544219 Y23.786811 Z-0.125000 I3.382387 J4.797157
G02 X10.221709 Y26.036255 Z-0.125000 I198.779765 J118.381571
G02 X10.883632 Y27.965694 Z-0.125000 I1.433936 J0.586328
G03 X12.389156 Y29.355862 Z-0.125000 I-2.299589 J4.000718
G03 X11.852417 Y30.969891 Z-0.125000 I-2.780837 J-0.028497
G02 X10.899127 Y32.739701 Z-0.125000 I5.906346 J4.323038
G03 X9.270945 Y32.942246 Z-0.125000 I-1.074534 J-1.992332
G02 X7.364212 Y32.794348 Z-0.125000 I-1.384991 J5.490651
G02 X6.013318 Y33.957325 Z-0.125000 I-0.267132 J1.055781
G03 X5.503901 Y35.911103 Z-0.125000 I-2.900913 J0.286934
G02 X5.184097 Y37.785729 Z-0.125000 I1.726980 J1.259209
G02 X5.890392 Y38.717449 Z-0.125000 I1.603842 J-0.482236
G02 X7.478708 Y39.542773 Z-0.125000 I5.559679 J-8.758472
G03 X8.366608 Y40.416146 Z-0.125000 I-0.635849 J1.534446
G02 X8.126999 Y42.768895 Z-0.125000 I3.333910 J1.528108
G03 X6.736191 Y44.326656 Z-0.125000 I-1.245789 J0.287484
G03 X4.979317 Y44.557886 Z-0.125000 I-1.367657 J-3.601458
G02 X3.900775 Y45.805523 Z-0.125000 I-0.101759 J1.002034
G01 X3.732520 Y50.883788 Z-0.125000
G02 X6.294358 Y51.127988 Z-0.125000 I1.688903 J-4.157948
G03 X7.992768 Y52.456042 Z-0.125000 I0.276828 J1.396024
G03 X7.016932 Y55.993022 Z-0.125000 I-2.556558 J1.197762
G02 X4.883910 Y57.932838 Z-0.125000 I5.634948 J8.338833
G03 X5.799256 Y61.206536 Z-0.125000 I-7.087284 J3.746466
G02 X8.574674 Y62.968958 Z-0.125000 I2.023186 J-0.119523
G03 X11.492536 Y63.889530 Z-0.125000 I1.026731 J1.830196
G03 X12.453799 Y66.370563 Z-0.125000 I-15.251027 J7.335661
G01 X9.841237 Y69.088868 Z-0.125000
G02 X11.900120 Y72.427398 Z-0.125000 I17.266793 J-8.344370
G02 X15.856332 Y72.792592 Z-0.125000 I2.147227 J-1.649526
G03 X17.527199 Y72.968363 Z-0.125000 I0.762540 J0.780799
G02 X18.719036 Y74.181055 Z-0.125000 I3.763705 J-2.506967
G03 X19.016402 Y76.427255 Z-0.125000 I-0.642799 J1.227881
G02 X18.358621 Y78.707295 Z-0.125000 I1.554054 J1.683240
G02 X21.368831 Y81.293396 Z-0.125000 I6.094563 J-4.049058
G02 X25.285495 Y79.995778 Z-0.125000 I1.268911 J-2.729722
G03 X26.976969 Y80.034072 Z-0.125000 I0.827213 J0.837373
G02 X28.757584 Y81.036568 Z-0.125000 I2.445509 J-2.261069
G03 X29.393845 Y81.883441 Z-0.125000 I-0.246424 J0.847590
G03 X29.195397 Y83.169493 Z-0.125000 I-4.244038 J0.003446
G02 X28.800016 Y84.629880 Z-0.125000 I16.926447 J5.366327
G02 X29.159649 Y85.547464 Z-0.125000 I0.857216 J0.193296
G03 X31.913869 Y86.465637 Z-0.125000 I-21.192581 J68.160812
G02 X34.789553 Y86.904146 Z-0.125000 I2.573006 J-7.225003
G03 X36.592534 Y84.450964 Z-0.125000 I4.555234 J1.458749
G03 X39.704016 Y84.074084 Z-0.125000 I1.906855 J2.710320
G03 X40.895142 Y85.808629 Z-0.125000 I-0.260949 J1.455446
G02 X41.215787 Y88.341823 Z-0.125000 I4.036865 J0.775914
G01 X47.327504 Y88.138868 Z-0.125000
G01 X47.920972 Y84.188243 Z-0.125000
G01 X51.782103 Y83.488388 Z-0.125000
G01 X53.513000 Y86.904146 Z-0.125000
G02 X56.569455 Y86.413925 Z-0.125000 I0.276396 J-8.050102
G03 X59.498338 Y85.428262 Z-0.125000 I19.211622 J52.242622
G02 X59.103316 Y82.768288 Z-0.125000 I-3.051679 J-0.906126
G03 X59.652544 Y80.632841 Z-0.125000 I1.240892 J-0.819201
G02 X61.250179 Y79.695929 Z-0.125000 I-1.133065 J-3.762728
G03 X62.967794 Y79.952522 Z-0.125000 I0.760419 J0.786905
G02 X66.047502 Y81.457529 Z-0.125000 I2.643352 J-1.505591
G02 X69.008140 Y79.913829 Z-0.125000 I-0.724864 J-5.001135
G02 X69.918803 Y77.680446 Z-0.125000 I-0.579745 J-1.538745
G02 X68.805408 Y75.557077 Z-0.125000 I-23.225302 J10.824666
G03 X69.147796 Y73.799943 Z-0.125000 I0.842060 J-0.747845
G02 X70.517216 Y72.375332 Z-0.125000 I-1.294573 J-2.614910
G02 X71.265747 Y70.996891 Z-0.125000 I-0.834469 J-1.345596
G02 X70.847627 Y70.099838 Z-0.125000 I-1.225920 J0.025436
G02 X69.919230 Y69.822479 Z-0.125000 I-0.767461 J0.876423
G02 X68.775425 Y70.748894 Z-0.125000 I0.197036 J1.412582
G01 X65.461984 Y74.161378 Z-0.125000
G02 X66.727743 Y76.553875 Z-0.125000 I8.358240 J-2.890883
G03 X65.971116 Y79.072327 Z-0.125000 I-1.313312 J0.978321
G03 X64.642596 Y78.215347 Z-0.125000 I0.254532 J-1.852832
G02 X63.296431 Y76.785446 Z-0.125000 I-4.317383 J2.715940
G02 X62.185301 Y76.460366 Z-0.125000 I-0.831022 J0.778976
G02 X60.924200 Y77.029698 Z-0.125000 I0.973870 J3.838543
G02 X59.547425 Y78.023301 Z-0.125000 I18.811867 J27.517125
G03 X58.341074 Y78.507978 Z-0.125000 I-1.483698 J-1.949259
G02 X56.831812 Y79.552975 Z-0.125000 I1.058019 J3.140463
G02 X56.601643 Y81.407981 Z-0.125000 I1.360683 J1.110616
G03 X56.800216 Y83.348021 Z-0.125000 I-1.800597 J1.164483
G03 X55.999821 Y84.089377 Z-0.125000 I-1.160544 J-0.450220
G03 X54.908174 Y83.924085 Z-0.125000 I-0.371985 J-1.230738
G03 X53.889089 Y82.149060 Z-0.125000 I1.301973 J-1.927547
G02 X50.650526 Y81.157044 Z-0.125000 I-2.222386 J1.472904
G03 X47.185778 Y81.921575 Z-0.125000 I-3.909034 J-9.482060
G02 X45.804761 Y82.983441 Z-0.125000 I-0.181109 J1.193436
G03 X45.492428 Y84.646636 Z-0.125000 I-11.017474 J-1.208062
G03 X44.377195 Y85.918538 Z-0.125000 I-1.016032 J0.234002
G03 X43.063905 Y85.460241 Z-0.125000 I0.277850 J-2.907018
G03 X42.862090 Y83.465836 Z-0.125000 I3.331673 J-1.344548
G02 X42.113878 Y82.040481 Z-0.125000 I-1.282451 J-0.235860
G02 X38.642415 Y81.532913 Z-0.125000 I-21.833386 J137.202380
G03 X35.203985 Y80.837006 Z-0.125000 I3.455678 J-25.916744
G01 X33.409546 Y84.378167 Z-0.125000
G03 X31.780529 Y82.194518 Z-0.125000 I-0.003004 J-1.697212
G02 X31.829113 Y79.796303 Z-0.125000 I-4.301167 J-1.286733
G01 X25.284654 Y76.524775 Z-0.125000
G01 X22.474658 Y79.268663 Z-0.125000
G03 X21.553278 Y78.491351 Z-0.125000 I1.186838 J-2.341538
G03 X21.319271 Y77.809079 Z-0.125000 I0.955593 J-0.709017
G03 X21.483219 Y77.019120 Z-0.125000 I1.791091 J-0.040269
G03 X22.086850 Y75.986549 Z-0.125000 I5.593260 J2.577040
G02 X21.780637 Y73.911278 Z-0.125000 I-3.275106 J-0.576973
G02 X20.019013 Y71.562670 Z-0.125000 I-7.477319 J3.773545
G02 X17.671225 Y70.134008 Z-0.125000 I-4.619508 J4.948013
G02 X15.469569 Y70.288668 Z-0.125000 I-0.924053 J2.593800
G03 X13.748841 Y70.622348 Z-0.125000 I-1.067133 J-0.899433
G03 X12.977931 Y69.475959 Z-0.125000 I0.685558 J-1.293417
G02 X14.357799 Y68.034177 Z-0.125000 I-4.084155 J-5.289972
G02 X14.965485 Y66.580535 Z-0.125000 I-2.983016 J-2.100871
G02 X14.862712 Y65.082978 Z-0.125000 I-3.022772 J-0.544859
G02 X13.788583 Y63.256021 Z-0.125000 I-4.697721 J1.532708
G03 X12.938272 Y61.344251 Z-0.125000 I3.355457 J-2.637415
G02 X11.755177 Y60.111280 Z-0.125000 I-1.504556 J0.259590
G02 X9.594849 Y60.437420 Z-0.125000 I-0.033287 J7.097515
G03 X7.992783 Y60.325165 Z-0.125000 I-0.658156 J-2.095221
G03 X7.633745 Y59.355268 Z-0.125000 I2.044797 J-1.308349
G03 X7.725559 Y58.866728 Z-0.125000 I0.769314 J-0.108317
G03 X8.118476 Y58.452532 Z-0.125000 I1.015623 J0.569983
G03 X8.807017 Y58.078792 Z-0.125000 I3.136298 J4.956884
G02 X10.200567 Y57.378596 Z-0.125000 I-9.261610 J-20.169557
G02 X11.006109 Y56.113030 Z-0.125000 I-0.746734 J-1.364451
G03 X10.409112 Y52.837294 Z-0.125000 I32.450797 J-7.606362
G03 X10.029064 Y49.526592 Z-0.125000 I103.226843 J-13.526982
G02 X7.380774 Y49.306054 Z-0.125000 I-1.668691 J4.027136
G03 X5.929236 Y47.938057 Z-0.125000 I-0.269415 J-1.168221
G03 X6.962411 Y46.690410 Z-0.125000 I1.034077 J-0.195290
G02 X8.591263 Y46.396350 Z-0.125000 I-0.004009 J-4.680484
G02 X9.987698 Y45.327196 Z-0.125000 I0.178551 J-1.213320
G03 X10.303195 Y43.646811 Z-0.125000 I12.537167 J1.484077
G02 X10.808365 Y41.384365 Z-0.125000 I-12.455360 J-3.968714
G02 X10.686692 Y39.475229 Z-0.125000 I-4.905477 J-0.645811
G02 X9.826130 Y38.047042 Z-0.125000 I-2.875752 J0.759439
G02 X7.640005 Y36.946523 Z-0.125000 I-3.021014 J3.279517
G03 X8.019778 Y35.696093 Z-0.125000 I2.148679 J-0.030302
G03 X8.628047 Y35.265914 Z-0.125000 I0.890790 J0.614435
G03 X9.582549 Y35.188267 Z-0.125000 I0.687066 J2.540406
G03 X10.764106 Y35.313955 Z-0.125000 I-14.450241 J141.459682
G02 X12.526790 Y34.838039 Z-0.125000 I0.552578 J-1.455624
G02 X13.420765 Y33.312039 Z-0.125000 I-4.579847 J-3.707868
G01 X15.509873 Y29.013326 Z-0.125000
G02 X14.011943 Y27.553030 Z-0.125000 I-6.239809 J4.902202
G03 X12.964872 Y26.117949 Z-0.125000 I1.796192 J-2.410072
G03 X14.045257 Y25.122153 Z-0.125000 I1.340666 J0.370571
G03 X15.172737 Y25.261023 Z-0.125000 I0.347563 J1.824565
G03 X16.694211 Y26.038050 Z-0.125000 I-9.237755 J19.966268
G02 X17.829850 Y26.074140 Z-0.125000 I0.602545 J-1.074648
G03 X20.360113 Y23.629670 Z-0.125000 I15.148521 J13.148414
G02 X22.351462 Y20.807625 Z-0.125000 I-3.987196 J-4.927137
G02 X21.589541 Y18.715127 Z-0.125000 I-5.060511 J0.657670
G03 X22.308691 Y16.629514 Z-0.125000 I1.185044 J-0.758172
G03 X24.355004 Y17.761139 Z-0.125000 I-0.297376 J2.953726
G02 X27.788603 Y17.915254 Z-0.125000 I1.782458 J-1.385772
G03 X30.081000 Y16.828534 Z-0.125000 I5.288938 J8.195608
G02 X31.974192 Y15.620019 Z-0.125000 I-1.363132 J-4.222548
G01 X31.537761 Y11.762459 Z-0.125000
G03 X32.746996 Y11.473325 Z-0.125000 I1.187087 J2.291471
G03 X33.416304 Y11.699358 Z-0.125000 I-0.009722 J1.132749
G03 X33.964284 Y12.317255 Z-0.125000 I-1.230725 J1.643400
G03 X34.515727 Y13.376601 Z-0.125000 I-12.022795 J6.931676
G02 X36.424674 Y14.490557 Z-0.125000 I1.456682 J-0.303638
G03 X38.576544 Y14.175516 Z-0.125000 I2.031010 J6.366052
G02 X40.708169 Y13.984476 Z-0.125000 I0.572206 J-5.603185
G02 X42.037953 Y13.216203 Z-0.125000 I-0.882305 J-3.062142
G02 X42.850734 Y11.913251 Z-0.125000 I-2.190336 J-2.271313
G02 X43.094422 Y9.854919 Z-0.125000 I-5.114127 J-1.649059
G03 X44.499963 Y9.742844 Z-0.125000 I2.577500 J23.455058
G03 X45.458682 Y10.868379 Z-0.125000 I0.046328 J0.931620
G02 X48.380157 Y14.031793 Z-0.125000 I2.748753 J0.392199
G03 X52.813455 Y14.572179 Z-0.125000 I0.761102 J12.211433
G02 X54.033394 Y13.425244 Z-0.125000 I-0.060989 J-1.287132
G03 X54.797870 Y11.626202 Z-0.125000 I3.366076 J0.368417
G03 X56.776423 Y12.710807 Z-0.125000 I0.598363 J1.255413
G03 X56.622880 Y15.502217 Z-0.125000 I-7.831219 J0.969166
G02 X58.061252 Y16.714416 Z-0.125000 I1.879319 J-0.770491
G03 X60.117149 Y17.656120 Z-0.125000 I-1.173676 J5.277366
G02 X63.717043 Y18.081741 Z-0.125000 I2.061761 J-2.001605
G02 X65.990947 Y16.527361 Z-0.125000 I-21.196615 J-33.448985
G03 X67.003971 Y17.422398 Z-0.125000 I-0.739716 J1.858027
G03 X67.111958 Y18.213827 Z-0.125000 I-0.976049 J0.536260
G03 X66.702171 Y19.214996 Z-0.125000 I-3.360422 J-0.791001
G02 X66.052602 Y20.380197 Z-0.125000 I15.300813 J9.293473
G02 X67.451411 Y23.027532 Z-0.125000 I2.773169 J0.227924
G03 X69.875101 Y25.027801 Z-0.125000 I-4.498755 J7.919567
G02 X71.091869 Y24.716712 Z-0.125000 I0.332284 J-1.235457
G02 X71.353524 Y23.941869 Z-0.125000 I-0.610117 J-0.637629
G02 X70.877278 Y22.698865 Z-0.125000 I-3.157265 J0.496940
G02 X69.811920 Y21.700424 Z-0.125000 I-2.553853 J1.657415
G03 X69.249240 Y19.537315 Z-0.125000 I0.799975 J-1.362832
G02 X70.027964 Y17.484187 Z-0.125000 I-5.645228 J-3.315403
G02 X69.184309 Y15.757140 Z-0.125000 I-1.301301 J-0.433905
G03 X67.551964 Y14.676037 Z-0.125000 I1.347424 J-3.807341
G02 X65.882774 Y13.836392 Z-0.125000 I-1.656828 J1.214753
G02 X64.737264 Y14.246391 Z-0.125000 I0.011049 J1.836107
G02 X63.415209 Y15.495164 Z-0.125000 I7.593829 J9.363666
G03 X62.253749 Y16.050386 Z-0.125000 I-1.262928 J-1.149468
G02 X60.520597 Y15.189465 Z-0.125000 I-3.814839 J5.504799
G03 X59.150245 Y14.196739 Z-0.125000 I0.859682 J-2.628874
G01 X59.321963 Y10.255901 Z-0.125000
G03 X56.516286 Y9.240036 Z-0.125000 I2.916777 J-12.438112
G02 X53.659442 Y8.873012 Z-0.125000 I-1.952754 J3.897776
G02 X52.560814 Y10.843225 Z-0.125000 I1.515001 J2.136207
G03 X50.710558 Y11.923749 Z-0.125000 I-1.288421 J-0.081829
G03 X49.277859 Y11.811225 Z-0.125000 I-0.136180 J-7.443215
G03 X48.341193 Y11.429970 Z-0.125000 I0.419481 J-2.371803
G03 X47.774527 Y10.726476 Z-0.125000 I0.875706 J-1.285358
G03 X47.583353 Y9.348500 Z-0.125000 I2.653274 J-1.070352
G02 X47.403799 Y8.211424 Z-0.125000 I-1.923514 J-0.278975
G02 X46.927295 Y7.765233 Z-0.125000 I-0.829203 J0.408002
G02 X46.112782 Y7.602088 Z-0.125000 I-0.822668 J1.992400
G02 X44.994286 Y7.628327 Z-0.125000 I-0.077710 J20.539740
G01 X41.190932 Y7.502230 Z-0.125000
G01 X40.965222 Y8.838609 Z-0.125000
G01 X40.965222 Y8.838609 Z-0.125000
G00 Z5.000000

(End cutting path id: path4415)


(Footer)
M5
G00 X0.0000 Y0.0000
M2
(Using default footer. To add your own footer create file "footer" in the output dir.)
(end)
%